YuyingTan/Master-theis-code/SOCIAL_INITIATION_ASC_LOF_FORPYTHON.csv
social_interaction,p1_knee_hip,p1_nose_hip,p1_r_hand_l_hand,p1_nose_hand,p1_nose_elbow,p1_neck_hand,p1_foot_nose,max_hand_x,right_f1_arccos_x,right_f2_arccos_x,right_f3_arccos_x,left_f1_arccos_x,left_f2_arccos_x,left_f3_arccos_x,upper_joints_velocity_x,sum _of_log-energy_x,auto_cor_x,p1_knee_hip.1,p1_nose_hip.1,p1_r_hand_l_hand.1,p1_nose_hand.1,p1_nose_elbow.1,p1_neck_hand.1,p1_foot_nose.1,max_hand.1_x,right_f1_arccos.1_x,right_f2_arccos.1_x,right_f3_arccos.1_x,left_f1_arccos.1_x,left_f2_arccos.1_x,left_f3_arccos.1_x,upper_joints_velocity.1_x,sum _of_log-energy.1_x,auto_cor.1_x,p1_knee_hip.2,p1_nose_hip.2,p1_r_hand_l_hand.2,p1_nose_hand.2,p1_nose_elbow.2,p1_neck_hand.2,p1_foot_nose.2,max_hand.2_x,right_f1_arccos.2_x,right_f2_arccos.2_x,right_f3_arccos.2_x,left_f1_arccos.2_x,left_f2_arccos.2_x,left_f3_arccos.2_x,upper_joints_velocity.2_x,sum _of_log-energy.2_x,auto_cor.2_x,p1-yaw,p1-pitch,p1-roll,p2-yaw,p2-pitch,p2-roll,p2_knee_hip,p2_nose_hip,p2_r_hand_l_hand,p2_nose_hand,p2_nose_elbow,p2_neck_hand,p2_foot_nose,max_hand_y,right_f1_arccos_y,right_f2_arccos_y,right_f3_arccos_y,left_f1_arccos_y,left_f2_arccos_y,left_f3_arccos_y,upper_joints_velocity_y,sum _of_log-energy_y,auto_cor_y,p2_knee_hip.1,p2_nose_hip.1,p2_r_hand_l_hand.1,p2_nose_hand.1,p2_nose_elbow.1,p2_neck_hand.1,p2_foot_nose.1,max_hand.1_y,right_f1_arccos.1_y,right_f2_arccos.1_y,right_f3_arccos.1_y,left_f1_arccos.1_y,left_f2_arccos.1_y,left_f3_arccos.1_y,upper_joints_velocity.1_y,sum _of_log-energy.1_y,auto_cor.1_y,p2_knee_hip.2,p2_nose_hip.2,p2_r_hand_l_hand.2,p2_nose_hand.2,p2_nose_elbow.2,p2_neck_hand.2,p2_foot_nose.2,max_hand.2_y,right_f1_arccos.2_y,right_f2_arccos.2_y,right_f3_arccos.2_y,left_f1_arccos.2_y,left_f2_arccos.2_y,left_f3_arccos.2_y,upper_joints_velocity.2_y,sum _of_log-energy.2_y,auto_cor.2_y,0,1,2,3,4,5,6,7,8,9,10,11,12,13,14,15,16,17,18,19,20,21,22,23,24,25,26,27,28,29,30,31,32,33,34,35,36,37,38,39,40,41,42,43,44,45,46,47,48,49,50,51,52,53,54,55,56,57,58,59,60,61,62,63,64,65,66,67,68,69,70,71,72,73,74,75,76,77,78,79,80,81,82,83,84,85,86,87,88,89,90,91,92,93,94,95,96,97,98,99,100,101,102,103,104,105,106,107,108,109,110,111,112,113,114,115,116,117,118,119,p1_to_p2torso,p2_to_p1torso,torso_to_torso,energy_joints1_to_torso2,energy_joints2_to_torso1,0.1,1.1,2.1,3.1,4.1,5.1,6.1,7.1,8.1,9.1,10.1,11.1,12.1,13.1,14.1,15.1,16.1,17.1,18.1,19.1,20.1,21.1,22.1,23.1,24.1,25.1,26.1,27.1,28.1,29.1,30.1,31.1,32.1,33.1,34.1,35.1,36.1,37.1,38.1,39.1,40.1,41.1,42.1,43.1,44.1,45.1,46.1,47.1,48.1,49.1,50.1,51.1,52.1,53.1,54.1,55.1,56.1,57.1,58.1,59.1,60.1,61.1,62.1,63.1,64.1,65.1,66.1,67.1,68.1,69.1,70.1,71.1,72.1,73.1,74.1,75.1,76.1,77.1,78.1,79.1,80.1,81.1,82.1,83.1,84.1,85.1,86.1,87.1,88.1,89.1,90.1,91.1,92.1,93.1,94.1,95.1,96.1,97.1,98.1,99.1,100.1,101.1,102.1,103.1,104.1,105.1,106.1,107.1,108.1,109.1,110.1,111.1,112.1,113.1,114.1,115.1,116.1,117.1,118.1,119.1
3,62.96789166,101.6377147,56.59177194,85.04277091,67.08290495,63.18198225,216.2336473,1.525179856,142.6071383,162.7048031,169.3324365,140.7353193,166.7925294,172.1839761,15289.90451,375.3730747,2.954735833,-0.000833927,-0.385690979,0.477711712,-1.211537773,-2.196181831,0.198319464,0.260698015,0.032374101,0.712068208,-0.090355824,0.17759627,-0.443757982,0.289000333,-0.012537298,566.5674787,0.081088833,-0.984911944,17505.07388,28255.2847,15732.5126,23641.89031,18649.04758,17564.59107,60112.95396,423,39644.78446,45231.93525,47074.41733,39124.41876,46368.32319,47867.14535,4244120.465,104353.7148,821.4165614,0.089808571,-0.040232922,0.036367996,0.064877918,0,0,67.55293866,114.090272,66.0056566,94.83931663,69.07372815,78.6397719,238.126045,1.449640288,149.9456504,163.7593052,166.6287404,149.0959935,169.2428137,165.5086278,20377.8396,388.2781653,1.600205812,0.492201492,-1.437234393,0.641530781,-1.373513874,0.507773145,0.489704883,-3.893568337,0.035971223,-0.029943297,-0.22592995,-0.557129825,-0.535734909,-0.352746157,-0.012414034,868.6092189,-0.035493242,-0.533401937,18779.71695,31717.09562,18349.57254,26365.33002,19202.49642,21861.85659,66199.04052,401,41684.8908,45525.08684,46322.78984,41448.68618,47049.5022,46011.39853,5430371.562,107941.33,444.8572157,7.107240217,6.839793628,6.834722364,6.959171757,6.926890354,6.819872461,6.77952508,6.831313359,6.679398988,6.652818071,6.631106365,6.133618795,6.226541621,6.700977978,6.694644286,6.96858566,6.959799944,6.883314621,6.860448817,6.774268354,6.759278725,6.9632688,6.714359135,6.715694462,6.711190262,6.268877598,6.280141192,6.621065592,6.547106074,6.953104938,6.87680709,6.857477524,6.771844619,6.761309115,6.95564977,6.718759617,6.719468338,6.716435166,6.287157527,6.304278908,5.833361354,5.960152415,6.83202812,6.814532437,6.764175443,6.75400721,6.879452677,6.728879673,6.729912959,6.727064953,6.511002754,6.508568217,6.169885011,5.964974726,6.813644641,6.762951528,6.768984648,6.858576733,6.743539437,6.743612861,6.742860606,6.599123805,6.60103449,6.401618822,6.36180356,6.752233823,6.751220067,6.77281862,6.738621324,6.739215515,6.737884223,6.67983318,6.681421796,6.59493478,6.604230128,6.768274795,6.760486537,6.748085517,6.74814184,6.748046408,6.700610136,6.702358695,6.622213282,6.633205477,6.958798624,6.71705289,6.718090593,6.714322581,6.323083154,6.334798511,5.885601047,6.597966399,6.759749075,6.759478005,6.760375575,6.746592785,6.749250574,6.708451521,6.71145612,6.759439262,6.759939129,6.745818123,6.748231653,6.706844772,6.709834046,6.761267795,6.748834316,6.751687244,6.712326427,6.715179742,6.86458545,6.867923108,6.929406569,6.93033127,6.871912549,6.93294052,6.934386744,7.057508169,7.055859229,7.056627457,424.5635482,414.7120801,501.7435487,3983042.847,3981196.422,4.587819175,4.29254882,4.290495317,4.335993834,4.309666798,4.234803638,4.24864385,4.28261152,4.275711414,4.291586695,4.218441754,4.228802404,4.251893329,4.179646419,4.129244665,4.399297752,4.397931285,4.359545485,4.350631082,4.27942879,4.312681078,4.394463316,4.341986155,4.343370756,4.344492191,4.274221375,4.281389959,4.167104522,4.160691613,4.445054738,4.313721508,4.420045887,4.235148869,4.373678456,4.418894301,4.369478202,4.363263542,4.380306201,4.29101924,4.297553325,4.194138957,4.170880786,4.403446155,4.277698545,4.340949575,4.258302075,4.341693831,4.313861253,4.323614314,4.311909527,4.255657697,4.256968259,4.182982749,4.16087988,4.453024145,4.221116099,4.425298561,4.386300064,4.352584246,4.335682225,4.35776401,4.27814412,4.310804175,4.180221097,4.208693872,4.445062368,4.253911523,4.254383208,4.277665166,4.271588379,4.272501819,4.23055752,4.240657979,4.162969794,4.192597077,4.447306966,4.345557328,4.331384665,4.32165295,4.342836557,4.288745638,4.296253109,4.184782581,4.216805989,4.40616671,4.358149163,4.356044399,4.365380005,4.281569523,4.288094026,4.183930347,4.163050914,4.392393323,4.387937196,4.400120822,4.343331319,4.349545827,4.260582671,4.257830835,4.387262417,4.394864089,4.341201155,4.345048643,4.257477252,4.251592413,4.411692827,4.350294249,4.357901961,4.248480307,4.265335664,4.325266137,4.326954888,4.25567023,4.263311364,4.343611596,4.258468439,4.28228652,4.27152255,4.22380453,4.29846235
3,55.20082069,95.99531234,60.63173685,85.72784392,62.24551899,68.92051868,197.6818602,1.514388489,159.699563,169.6310923,168.0877132,151.9902353,172.6841462,168.5121999,17883.22517,387.5370117,1.212700508,0.111828563,-0.254655249,0.67081941,-0.163604759,-0.298991082,0.489251613,-0.521535675,-0.001199041,0.290561352,0.36232172,0.474307584,-0.199730838,0.284946566,0.268606016,233.2310167,0.214413604,-0.409126366,15290.36075,26595.74102,16787.95184,23758.58208,17237.15797,19106.58699,54765.01063,420,44243.23197,47012.30499,46586.21418,42077.43716,47850.58596,46688.58213,4968548.163,107357.8181,335.9180408,-0.19580376,-0.089424569,0.037083311,0,0,0,48.70005957,82.63705474,46.02686557,69.77236204,53.29797022,55.36504989,170.4975316,1.503597122,153.090124,170.7932638,169.079324,151.2925592,170.4078966,169.2391882,19121.45423,387.2758812,1.115719085,-0.216303168,-0.20420202,-0.187236173,-0.328003325,-0.309793722,-0.302534805,-0.532677213,0.026378897,-0.056298759,-0.074618485,-0.202269263,-0.403868737,0.013160779,-0.224388759,345.0636468,0.032473548,-0.362999836,13474.61815,22886.44879,12716.803,19323.97608,14759.81739,15314.20567,47220.28208,417,42406.89143,47308.19246,46837.1228,41885.5285,47201.42653,46873.90645,5314941.007,107274.5092,309.0541866,7.502230089,6.95928966,7.050102343,6.882227779,6.928845367,6.581584118,6.713990714,7.036405238,6.609790944,6.556208686,6.650159984,6.54154658,6.565541355,6.728777478,6.565336957,6.82253508,6.839556569,6.709976712,6.729104413,6.57941058,6.604041541,6.829805257,6.574530786,6.56513173,6.583850542,6.221386357,6.249586851,5.998369329,5.898076248,6.858801106,6.722636643,6.74477213,6.583908188,6.61466113,6.847828676,6.582568103,6.571896001,6.593044945,6.204529043,6.283821189,5.931074644,5.904931637,6.63993372,6.655588133,6.554794033,6.566030159,6.715734114,6.55598936,6.549326597,6.561887948,6.319688434,6.31873153,6.152632706,6.070115753,6.677007387,6.564854817,6.58367767,6.736257718,6.57129534,6.56315159,6.578478874,6.338902105,6.338094914,6.166337738,6.106456022,6.522768219,6.516785165,6.582066827,6.519842696,6.516600786,6.521987926,6.413513609,6.41374336,6.275048753,6.263740048,6.571110338,6.609287128,6.522634631,6.517331465,6.526956159,6.388735913,6.388270754,6.212060819,6.191305328,6.837619095,6.578876638,6.568942635,6.588696959,6.254552062,6.25140908,5.876915486,5.963143291,6.532660659,6.527861638,6.535572692,6.435435392,6.436135882,6.310315563,6.296789064,6.523737567,6.530328039,6.437416369,6.437721232,6.320546462,6.306548104,6.539228661,6.430176773,6.431268468,6.291688113,6.279110296,6.547248854,6.546878925,6.599621439,6.592850019,6.548746068,6.598912876,6.597817515,6.765909225,6.763406337,6.773563705,220.53942,173.6976638,295.3151592,1410466.258,1379004.691,5.917455561,5.686290555,5.757713692,5.620039713,5.650838195,5.609687556,5.642076882,5.723448465,5.605647958,5.609928247,5.589766696,5.401383967,5.433480521,5.253113386,5.288047676,5.781491464,5.774169384,5.751268583,5.751207357,5.717160546,5.692245808,5.781617528,5.709449168,5.707929451,5.709454999,5.612637582,5.618173918,5.499684948,5.507581626,5.791756353,5.737905518,5.770123866,5.696187419,5.714673916,5.786118974,5.713783148,5.707796842,5.719759673,5.611558483,5.615459525,5.508903048,5.497479515,5.744712638,5.728091925,5.722132378,5.6693063,5.748531944,5.694184547,5.694979989,5.693439562,5.614617581,5.615136665,5.509222677,5.505432249,5.775837214,5.692191427,5.722127411,5.764692871,5.711026909,5.704489226,5.719372616,5.624234463,5.626883752,5.53084952,5.506198166,5.747355559,5.652410733,5.710301831,5.662340757,5.665471211,5.658943364,5.586773107,5.585165237,5.474553187,5.470524117,5.790708251,5.708415143,5.65131856,5.645022955,5.659512092,5.567990639,5.572933211,5.472874021,5.445476329,5.788801728,5.713968538,5.710199778,5.718112304,5.61425826,5.619355682,5.505793569,5.50469099,5.674781942,5.66987014,5.678100829,5.592844609,5.59763306,5.498924974,5.493681644,5.667716508,5.672273481,5.590959708,5.593551134,5.495793479,5.49036614,5.685788362,5.596235521,5.600836466,5.505036391,5.493743219,5.539332717,5.533686027,5.453617281,5.432016683,5.549090142,5.442886571,5.460870418,5.390614514,5.342713346,5.407739327
3,91.4356991,87.57262427,126.3136053,50.29168924,53.90921253,104.6196364,182.8265894,1.592727273,140.1476569,171.0227313,173.0415638,146.7406524,169.2525696,172.7612251,5145.74109,373.5879968,1.601349011,-0.461907234,0.331927557,-1.832030177,-0.156782855,0.547452318,-0.162703383,0.236449263,0.013333333,0.815046166,0.095178912,0.010446097,-0.458834312,0.203227524,0.176964019,231.6016977,-0.02222825,-0.507720793,25014.86125,23988.07698,34544.31641,13785.30905,14780.5708,28655.62983,50067.69979,437,38435.39787,46862.77937,47418.38769,40192.7779,46395.52113,47348.75764,1388155.86,102358.2811,438.769629,0.08423157,-0.067434376,0.006221113,0,0,0,82.40269553,76.22776206,124.4644967,49.69655871,44.83968464,92.19942874,172.8238231,1.607272727,135.0108314,171.3384349,172.1364394,142.5595005,169.6220128,172.0737148,7128.006522,374.0364583,1.273908189,-0.177636426,0.987114017,-1.392764778,0.207285159,0.307153189,-0.140974642,0.45289761,0.065454545,0.898455098,-0.233739826,0.009775418,-0.369919223,-0.075373967,-0.068730756,276.5481447,0.009679004,-0.405733177,22609.08689,20865.31896,34024.42406,13628.02602,12281.43164,25315.32728,47323.36736,440,37093.03706,46941.40901,47166.73642,39078.74503,46473.25567,47143.01558,1954251.185,102488.8815,349.0508438,8.777394225,8.665449989,8.57068908,8.396945478,8.14677276,7.999500306,7.563265674,8.630167142,7.623378087,7.684407817,7.507407216,7.698059111,7.66846024,5.310605122,6.40346877,8.662540484,8.587024578,8.374593601,8.200638218,7.973319033,7.619135651,8.634880396,7.61845592,7.688096688,7.47067417,7.76201559,7.735126655,5.943091798,6.616619863,8.623161445,8.252173541,8.305346828,7.809403729,7.749648378,8.616536642,7.610184985,7.532288169,7.611079017,7.76151414,7.742482834,6.298543529,6.381052947,8.246662964,7.933641723,8.012807824,7.309474417,8.322563799,7.652902713,7.749657698,7.524721979,7.328417961,7.362594095,6.525430957,6.652093731,8.185294458,7.573143212,7.882557777,8.264691878,7.606174397,7.483800266,7.672460673,7.401860149,7.437638509,6.772719725,6.382326278,7.966400909,7.182977985,7.900167885,7.672762104,7.748538145,7.516282717,7.309284475,7.128258348,6.449924538,6.163394216,7.985426734,7.618529502,7.536106837,7.442462029,7.608171274,6.685704604,7.125810021,6.501807272,6.228704518,8.645099601,7.617464458,7.619948361,7.555756325,7.817011279,7.792104012,6.389024246,6.491805423,7.761036049,7.737216712,7.73862779,7.215508475,7.202858756,6.826229092,6.704257217,7.755756874,7.686822004,7.213080412,7.096851987,6.876897592,6.652164826,7.752810578,7.187305452,7.249579148,6.784653454,6.078529612,7.980155286,7.932962607,8.051248135,8.017250536,7.987340782,8.032096986,8.051451846,8.41081467,8.385288993,8.428675525,55.16234407,62.02539588,118.0975559,581622.5877,559813.0504,5.908975799,5.61924763,5.304918597,5.4599546,5.084287379,5.734773088,5.38614189,5.529084918,5.486684338,5.358174512,5.360318797,5.491229858,5.532820674,5.372865663,5.437521698,6.014893215,5.63465083,5.717047942,5.332343676,5.56867107,5.168825658,5.819979774,5.330668622,5.451730036,5.248235081,4.957784858,4.705223283,4.932579019,4.578968295,5.976200335,5.304093894,5.743411066,5.110638276,5.731871224,5.900478104,5.457857107,5.36808085,5.493896757,4.711571976,5.187287446,4.62577301,4.756011228,5.883004013,5.019256218,5.930775047,5.369219589,5.526592804,5.385982365,5.518423193,5.24856242,5.170837694,4.922352838,5.08318869,4.793017425,6.115700101,5.24312472,6.22815823,5.594942183,5.471321506,5.425972263,5.599034152,5.192883791,5.356777189,5.099166504,5.305361134,6.382794148,5.537521181,5.219160536,5.520178073,5.673366229,5.446190322,5.446606133,5.276181027,5.340464953,4.672097076,6.766712269,5.696280339,5.733926334,5.714420352,6.035198311,5.478577962,5.751659458,5.403984893,5.714300687,5.980468434,5.393683133,5.260291895,5.427920386,4.630463873,4.641801933,4.387647343,4.493898989,6.072364692,5.987048497,6.025459537,5.87910418,5.881644676,5.668961632,5.633313641,6.037225365,5.901048582,5.891412509,5.755249992,5.718724275,5.65056378,6.064982486,5.848544264,5.934252037,5.633363072,5.557492396,6.099472907,5.889066448,6.005144431,5.598531019,6.152183532,5.790792829,5.951280126,6.135832447,5.849849101,6.179483796
3,100.2677096,179.4390664,62.99108254,145.3641321,103.4711878,113.6394974,335.2690901,1.62585034,141.0390573,149.9391169,153.1925447,141.3423357,153.9392528,154.2629511,32503.36458,382.6157314,0.549291867,-0.282397389,-0.345506451,0.922608148,-0.873518874,-0.261900552,0.013916748,-0.734072256,-0.007936508,-0.009812328,0.291483948,0.059342896,0.935409136,0.023113265,0.25095944,8.104368988,-0.01547076,-0.188174796,29389.84078,52627.61758,18497.08886,42624.91066,30354.53112,33307.64826,98308.77216,476,41310.50739,43936.14681,44869.84606,41464.6246,45107.95159,45214.27839,9553210.959,112113.7565,160.9425171,-0.208564773,-0.213452549,0.004166173,0,0,0,103.409935,201.6332539,64.43948533,150.26534,112.8980669,118.6860679,373.7801281,1.700680272,145.4380418,156.6344077,159.3015816,128.9743745,159.7612241,157.9156535,35107.51936,385.3388824,0.639918088,-0.214916883,-0.728709962,1.770914476,0.366624226,0.197895596,-0.382810847,-0.702186534,-0.044217687,-0.309470448,-0.018795111,0.080054423,-0.082432961,-0.111307274,0.234061238,185.8437517,0.434230517,-0.212513288,30254.9776,58993.4475,18941.05637,44072.83942,33118.80298,34787.38649,109371.4153,498,42585.40486,45882.61031,46661.0307,37812.84019,46796.74899,46271.83897,10212002.01,112927.4956,187.4959997,8.852259502,8.724289177,8.682530325,8.433088037,8.436079667,8.355523798,8.048966,8.704806574,8.241171635,8.209874803,8.274463666,8.170653884,8.317578843,7.040471187,7.533969343,8.553515018,8.565464506,8.28792093,8.367075139,8.282128373,8.109417557,8.567999918,8.131235629,8.169040484,8.187712018,8.055079954,7.956115543,7.028852881,7.249431317,8.593458151,8.274211256,8.392814464,8.199379211,8.048361415,8.57352274,8.146491968,8.200248677,8.184175647,8.089442048,7.898703738,6.939475641,7.230775433,8.375644325,8.524239804,8.325268082,8.226913372,8.273176159,8.296523362,8.297652564,8.290883774,8.150384251,8.127632073,7.637489573,7.601060225,8.41801309,8.426481562,8.125834909,8.390836215,8.387787494,8.433530061,8.358451814,8.212895457,8.190233425,7.727739461,7.726494291,8.463203518,8.256849615,8.272307894,8.359680535,8.366205376,8.347341479,8.276862555,8.275435464,7.991741401,7.977355758,8.352011224,8.074440553,8.234916569,8.240900653,8.221526687,8.10700624,8.058104738,7.927078759,7.81915478,8.571325793,8.167479412,8.201971613,8.100599263,8.07431091,7.782461844,7.018431108,7.186038892,8.418467015,8.419354443,8.413811525,8.330133635,8.33880976,8.053468224,8.003068774,8.422889501,8.412359008,8.341742146,8.34144604,7.984357139,8.007670903,8.412528458,8.313458797,8.333215821,8.021106596,7.978941936,8.479813408,8.450474718,8.396394211,8.380514603,8.448387148,8.36543419,8.374774301,8.49259065,8.464472919,8.470310213,188.1358297,171.8926145,288.5219846,1981119.99,2078658.687,7.724316842,7.322119476,7.266672915,7.271866915,7.551316912,7.381618632,7.589931487,7.308409347,7.302574879,7.272936754,7.263099695,7.077925987,7.14024931,7.235649061,7.206138601,7.536490956,7.494803593,7.464502561,7.677769051,7.388526411,7.390771269,7.531425082,7.436902764,7.416455345,7.42049915,7.02552941,7.226072593,6.875476568,6.901583067,7.628332881,7.402350774,7.76778681,7.439631097,7.700746799,7.567804635,7.478913664,7.443809684,7.508334021,7.153411897,7.058247171,6.987096535,6.839202695,7.719214486,7.568996006,7.704476878,7.744489002,7.452140679,7.651956807,7.64508955,7.6560483,7.452026245,7.505999342,7.253937835,7.235103476,7.802804339,7.457749384,7.549989333,7.672563463,7.822268138,7.798761334,7.815124066,7.470697741,7.587380699,7.388275698,7.276543003,7.831555312,7.499473134,7.44407702,7.602803066,7.605155523,7.591618256,7.470257986,7.504099296,7.289546625,7.542995589,7.801143636,7.552971515,7.98786358,8.045145518,7.99965273,7.812495551,7.733572646,7.526966818,7.450995678,7.56540383,7.474000767,7.446382282,7.483530661,7.10819821,7.175988507,7.050065152,6.862842793,7.726204716,7.709702462,7.730873402,7.565520382,7.613966021,7.418639565,7.443414071,7.703621699,7.706274785,7.574440475,7.595444515,7.41692547,7.427853072,7.75136155,7.518133565,7.633031823,7.400969338,7.459999433,7.636907793,7.558010815,7.480478882,7.447830263,7.639729247,7.377556458,7.465930654,7.534267095,7.37773588,7.52292346
3,55.38359404,96.87191047,34.86521902,71.96370455,59.66133223,53.28565591,201.4789025,1.625441696,139.6498363,169.6239311,169.7173542,134.8433642,167.85604,171.4188066,72812.41986,372.6345676,2.06843439,0.141207267,0.015154139,-0.605067199,-0.508007148,-0.216361921,-0.232551666,0.087360999,0.06360424,-0.773435564,0.049605772,-0.159707285,-0.594041386,0.102508076,-0.117408488,459.2022197,-0.13907902,0.680571943,15620.08837,27315.51026,9796.19386,20260.09938,16814.94311,15000.54703,56809.61641,459,39343.61463,47826.23433,47850.04282,37994.5475,47332.20483,48331.63239,20604993.15,105082.7461,583.298498,0.124501174,-0.055797608,0.011959229,0,0,0,40.61873931,67.68649225,16.69903018,50.45355158,40.84373466,37.55743218,141.8315159,1.561837456,144.0016984,170.3550392,171.3565247,141.366436,166.2481377,168.2575694,66783.3134,387.9913944,2.097197295,-0.165337057,-0.254901219,0.107628805,-0.047367787,-0.057737822,-0.036537151,-0.555043242,0.034157833,0.486592826,0.245903889,0.11204559,0.401078929,0.073640761,-0.091484318,322.9128509,0.004289883,0.689058252,11450.81666,19074.56425,4710.895219,14210.85406,11508.55451,10582.14163,39973.6003,441,40590.51117,47867.37039,48324.96738,39855.53601,46885.18515,47441.83527,18894402.56,109406.6623,591.4096371,6.442125212,6.400331542,6.402585495,6.335870999,6.34106334,6.291639565,6.312755695,6.401153061,6.266062927,6.265600685,6.266710983,6.130789761,6.131219267,6.051585236,6.029500306,6.368173535,6.370348874,6.314168732,6.319364354,6.274145041,6.266496611,6.368985597,6.241014332,6.240581207,6.241667511,6.146166142,6.146720461,6.042452573,6.069363779,6.372997052,6.316375088,6.322167067,6.276495657,6.272488555,6.371390263,6.242780176,6.24226092,6.243534249,6.146676655,6.147245357,6.053728647,6.087809407,6.279303733,6.283688172,6.248183376,6.241434253,6.31502079,6.228893213,6.228576127,6.229470874,6.174497885,6.175007893,6.086472137,6.098076365,6.289592627,6.253717539,6.252080939,6.320519054,6.232672212,6.232179065,6.233375369,6.174922277,6.175465058,6.130694457,6.124494398,6.264003897,6.276438555,6.275108197,6.201676428,6.201188203,6.202392812,6.189979689,6.190700732,6.082531872,6.077300206,6.286687217,6.269795181,6.255426939,6.254825085,6.256111861,6.224382023,6.225136913,6.201336297,6.196533859,6.369946034,6.241504208,6.241027742,6.242213591,6.146504175,6.14707008,6.029484294,6.088822023,6.208404787,6.208105977,6.20896849,6.161626693,6.162628751,6.11176425,6.107865395,6.207868181,6.208657769,6.162071835,6.162932394,6.111662118,6.107786571,6.209600497,6.161829679,6.16293455,6.111879554,6.107790363,6.194134279,6.194430301,6.206431786,6.20567313,6.194979061,6.206533634,6.205894141,6.273215609,6.274489601,6.276248073,501.3887292,561.9591782,589.3525739,5202309.382,5308881.545,5.955639034,5.928843067,5.929274995,5.912943901,5.931312177,5.932745777,5.895046995,5.928409089,5.913322599,5.912932071,5.913422811,5.889108438,5.889119867,5.852823354,5.858320872,5.929545372,5.931585387,5.924312601,5.93335222,5.923544324,5.899703603,5.929837711,5.910764111,5.909456127,5.911471117,5.883967321,5.884041247,5.853802292,5.854505854,5.936116732,5.92754566,5.939637149,5.92863974,5.900758925,5.933331446,5.91617607,5.914515362,5.917595843,5.891738942,5.892400835,5.864425056,5.86522051,5.936454324,5.940626816,5.938942033,5.908477667,5.924339922,5.920934259,5.920287237,5.920164783,5.896813754,5.896346583,5.869291907,5.869691304,5.954636511,5.946158932,5.925275096,5.935512001,5.929802516,5.92802307,5.931102805,5.906488235,5.907131111,5.880430488,5.882042274,5.972766583,5.976991942,5.924462447,5.920982678,5.916786932,5.917809092,5.895686112,5.912504087,5.863520882,5.873669571,5.973254144,5.903517921,5.898741969,5.89525691,5.901101905,5.878095729,5.871496129,5.841153396,5.852809788,5.931333688,5.912375227,5.910800831,5.913676939,5.886950309,5.887459158,5.858518429,5.85958927,5.916030234,5.915547893,5.916342046,5.895203394,5.896082315,5.872743342,5.871368702,5.915510537,5.915641888,5.894792767,5.895529619,5.872001052,5.870342052,5.917554243,5.895798336,5.896946638,5.873457726,5.872623271,5.8837687,5.883905977,5.865261013,5.863436515,5.885455044,5.866149542,5.86434684,5.855548418,5.852303668,5.850641477
3,67.54858756,112.9770524,55.99040167,67.09013627,66.0042378,58.96252039,226.8516538,1.59566787,144.5266876,161.2321071,167.7832581,108.123051,168.6605268,169.178029,8423.597802,370.5757674,0.843440605,-0.165155364,0.547266665,-2.339837379,1.254685683,1.686710755,-1.695326421,0.243570087,-0.027677497,-0.548628611,-0.238296164,0.123209868,-0.76477763,-0.07214913,-0.012483272,213.3549662,0.107419236,-0.281146868,18710.95875,31294.64352,15509.34126,18583.96775,18283.17387,16332.61815,62837.90809,441,40033.89246,44661.29367,46475.96248,29950.08514,46718.96593,46862.31405,2326614.328,102649.4876,233.6330475,0.103216692,-0.032343923,0.013434085,2.50E-09,0,0,78.17679837,111.6623332,76.28870362,59.57069278,64.57734814,75.54211763,224.3226751,1.649819495,138.1133847,165.5733107,167.2876697,129.2228133,167.4316921,167.3682107,16106.88454,375.8079416,0.683564033,-0.307236507,-0.282166996,-6.180888985,5.563580208,0.809522593,-0.219898716,-4.30413078,-0.022864019,1.10372542,-0.046430978,0.205962519,1.196954706,0.102029912,-0.113674807,348.2195388,0.388176685,-0.227854678,21654.97315,30930.4663,21131.9709,16501.0819,17887.92543,20925.16658,62137.38099,455,38257.40755,45863.80707,46338.6845,35794.71928,46378.57872,46360.99437,4441984.656,104098.7998,189.3472372,8.663671967,7.960159281,7.95826729,7.385114773,7.569128571,6.643785846,7.023038735,7.961640868,6.733350489,6.800753279,6.82448102,7.993135295,8.133397166,7.936567062,7.832949437,7.747531909,7.756616911,7.420519515,7.434211435,6.882100539,7.151981325,7.754263097,6.825203875,6.838842247,6.808490189,6.51034344,6.526113661,4.720669352,4.657135138,7.788091487,7.421255693,7.401883567,6.87763504,7.049213817,7.77472951,6.891483942,6.867300031,6.899212743,6.481368829,6.455972092,4.506395303,5.481919846,7.377080464,7.14837462,7.095988182,7.122049222,7.42604927,7.006276731,6.994092882,6.996241599,6.340752345,6.222234207,5.841653252,6.047626431,7.549956965,6.918410421,7.263217919,7.426682689,7.192574257,7.232112728,7.208054664,6.853083108,6.908601258,5.841182978,5.712737472,7.351991503,6.872130849,6.890191281,6.924572251,6.924964054,6.899925895,7.074788845,7.09595487,6.534370165,6.56621005,7.366912902,7.112087372,7.104932955,7.146098325,6.726812281,7.010693591,7.186343471,6.329897638,6.503808042,7.768106303,6.86139321,6.859749422,6.864443123,6.550236864,6.548878334,5.159083905,5.397658,7.183287552,7.166934403,7.181323118,6.986417665,7.008669032,6.461172835,6.566874262,7.172196197,7.168240445,6.998062127,7.019487639,6.495647584,6.570203408,7.19033612,6.970113205,7.007687094,6.457931293,6.615394715,7.3553175,7.352340056,7.442107321,7.451709621,7.389630274,7.451949024,7.494808422,7.794986713,7.773850464,7.828552444,203.9104966,61.37709002,275.6850659,1610139.424,1526284.389,5.509202563,5.140643315,4.970952772,4.853412397,4.973692597,4.80861843,4.904541252,5.121125308,4.660273878,4.687140156,4.829985736,4.376169178,4.348381288,4.338259116,3.993572741,5.978046759,5.999346159,5.829351814,5.575406193,5.341151936,5.652647119,5.927396837,5.660154114,5.650454632,5.680872728,5.277458294,5.41977039,5.170006765,5.268100504,6.201757848,5.869324145,6.120351452,5.318489011,5.549769695,6.05213519,5.817999319,5.786437314,5.876533303,5.507371999,5.509789691,5.546608599,5.325818378,6.012108764,5.329728657,5.516046464,5.528821644,5.810359568,5.825609068,5.78218122,5.799250875,5.431047458,5.557931071,5.40080591,5.463655805,6.057246322,4.932106979,5.819030973,5.61702866,5.286760846,5.682342059,5.478167295,4.783367601,5.46518677,5.270365214,5.196261065,6.040883477,5.255152925,5.381779939,5.519741378,5.49403839,5.46496672,5.418935204,5.364106151,5.310075516,5.401802384,6.10249737,5.646740724,5.684019193,5.710017817,5.653401077,5.190084052,5.632599595,5.120272617,5.520367478,6.032044896,5.791677504,5.716201807,5.810264218,5.35030361,5.446433069,5.403487615,5.298880546,6.056581518,5.972415271,6.0709619,5.737855245,5.877583523,5.586455168,5.575666892,5.984446221,6.022049479,5.699909539,5.743101277,5.487857919,5.518168406,6.119973385,5.754752647,5.89094106,5.63748874,5.594550238,5.782272214,5.729950346,5.582669578,5.451102058,5.993238539,5.570283055,5.791082205,5.692724797,5.521104891,5.834584512
3,58.90654739,81.39225414,37.42145103,53.52016434,41.66818862,54.18109506,173.5355893,1.413559322,118.3777913,170.2196608,166.6128216,150.8327088,169.8047304,167.5050728,82924.67538,386.4074365,0.565052728,0.237766817,-1.105419656,0.297481046,0.186221317,-0.086536464,0.415839799,-1.286020043,0.031638418,-0.768057777,0.13157652,-0.081240233,0.278172493,-0.06430351,-0.201304367,891.4196266,0.117603009,-0.184473281,17321.04687,23926.02919,10992.77142,15714.91861,12239.99696,15939.90233,51019.85932,416,34779.04282,50058.12417,48976.93259,44350.12166,49918.37037,49241.96548,24457553.95,113616.0955,166.1255022,-0.057336018,-0.058791427,0.026151717,0.074150276,0,0,54.52928457,79.23091296,18.24210326,49.9293754,40.20028658,39.8977638,170.5785946,1.447457627,106.1225669,168.8027749,167.3677411,133.5074713,168.8392491,168.5956785,102262.4286,387.0502091,0.391352794,0.03415855,-0.106564762,-0.633200542,-0.095948686,-0.029440697,-0.688126432,0.270012848,0.029378531,-0.167425632,-0.052353535,0.180230443,-0.483616115,-0.254255825,0.007742131,879.2155433,0.04591289,-0.128888481,16016.69268,23286.54678,5297.586757,14660.46398,11810.46863,11681.11369,50152.8964,426,31133.22975,49627.34031,49223.89402,39239.33616,49634.00689,49568.38881,29933528.36,113788.3301,115.0577214,8.407293815,7.90855857,7.880042963,8.292612135,7.957845673,8.199629625,8.282518084,7.88423764,8.231740046,8.202390726,8.267020205,8.331089531,8.32328367,8.157716186,8.177312308,7.818317871,7.80423144,7.820786469,7.649419039,7.747784747,7.48982004,7.81080607,7.687370874,7.689890045,7.681758196,7.685135351,7.681568557,7.802153614,7.646768888,7.791769288,7.780968073,7.628640319,7.724243233,7.494991073,7.797592803,7.688309502,7.689577736,7.684708279,7.615203866,7.611986178,7.694836125,7.588627929,8.405430358,7.760259193,8.4614984,7.957805755,7.796425471,7.975496483,8.003911852,7.931293898,9.337081465,9.326154472,9.256353212,9.238566022,7.699657786,7.789926463,7.527202211,7.634151635,7.628556454,7.629496624,7.627365643,7.513199256,7.507046517,7.429647066,7.42056991,8.542577736,7.538370191,7.736321774,8.074051425,8.15952199,8.174528891,8.835917145,8.831856859,8.525989065,8.476734812,7.692426088,7.494480222,7.50412789,7.517232715,7.559790794,7.548808203,7.506797647,7.512004102,7.493758544,7.803912958,7.689262575,7.690894181,7.68511063,7.617188394,7.614120505,7.808100005,7.691611084,7.72228578,7.723564577,7.721166427,7.678237583,7.670202667,7.653681224,7.647453711,7.725222714,7.722256872,7.680639874,7.671330883,7.655091837,7.648668375,7.720745257,7.673652347,7.671515508,7.654675118,7.648707354,7.831683514,7.820696877,7.880388452,7.868231778,7.815572266,7.868476473,7.863308513,7.972978408,7.958395964,7.954820139,346.2899551,261.6016426,665.0522866,6063801.83,5895502.383,7.208747681,7.217211778,7.239272011,7.167690001,7.105196374,6.941722917,6.783327999,7.219206604,7.238299142,7.246587757,7.230597293,7.176673323,7.114390645,7.149354055,7.062578089,7.333341803,7.328792002,7.142842457,7.224728034,7.332229617,7.193722028,7.338973882,7.230505549,7.249032156,7.249782012,7.091599281,7.118686287,7.051462449,7.054981479,7.323864634,7.089300421,7.226484144,7.331499699,7.201691658,7.323268104,7.235451594,7.25394341,7.23788087,7.149538514,7.082686286,7.027465543,7.016212346,7.341456835,6.890734282,7.197312683,6.893667896,7.131551761,6.998482591,7.033153493,7.033708976,6.992708934,6.993091177,6.896620636,6.962020283,7.306959999,6.944759347,7.253907093,7.220312275,7.182118579,7.198446719,7.190187233,7.094264286,7.030237057,7.044763737,6.974369559,7.349555735,6.672299002,7.314648157,7.179507578,7.219345886,7.18363326,6.875558209,6.913454203,6.860964255,6.899410436,7.651432575,7.204799308,7.20680172,7.145626094,7.178250664,7.145513044,7.080850767,7.0450232,7.093343491,7.330183408,7.257340732,7.259901087,7.235443819,7.130913654,7.072695549,7.012790971,6.99314172,7.28043809,7.281585738,7.271983391,7.169405588,7.145942749,7.05249905,7.013317943,7.289612548,7.287567023,7.177818629,7.168502015,7.060645873,7.062026543,7.276569963,7.174587262,7.146243258,7.076780251,7.027007782,7.259939756,7.249964668,7.225802479,7.202487073,7.229079247,7.215501637,7.186573836,7.238623761,7.196707133,7.198117078
3,74.90773532,92.28847005,92.13215433,71.42006625,57.8495573,86.77915359,184.8866758,1.546979866,161.5319877,164.9605571,167.4888434,132.4663886,165.109715,168.5339821,20516.95688,373.2084873,0.476209116,-0.231297028,-9.598587021,0.053666677,-12.66039506,-6.18150702,-0.327192399,-15.51448387,0.014541387,-0.007593489,-0.107912931,-0.006930273,-0.5779161,-0.11956984,-0.088005404,640.7285918,0.013896856,-0.153870752,22238.5645,27329.28342,27363.84117,21109.64291,17132.47327,25748.2407,54782.61898,460,47982.93488,48980.36252,49745.28451,39297.99433,49031.80427,50043.23682,6111664.314,110834.87,141.4341076,-0.012766708,-0.055982076,0.028516441,0,0,0,65.66198125,83.69152113,58.90768155,48.1990099,45.03160701,70.87302229,168.8739416,1.630872483,157.1623949,166.2319597,163.3023885,128.386062,164.6482096,163.4391929,22654.06985,376.9201926,0.431818183,-0.35141831,0.435569017,0.147192813,-0.177279639,0.56380947,-0.780575699,0.712105435,-0.030201342,-0.146748754,-0.063206987,0.056941722,-1.274384225,-0.161403125,-0.083977571,589.5867954,-0.064463351,-0.138173562,19483.32979,24894.30229,17462.94828,14336.07237,13395.58869,21008.21358,50203.09485,485,46680.79622,49359.2405,48497.72095,38082.057,48894.27566,48524.98961,6748523.977,111939.894,128.2500003,8.619384567,8.37232457,8.372635853,8.226059013,8.265502205,8.5052566,8.435597052,8.378946624,8.58038458,8.575913058,8.580666314,8.591446734,8.360153427,8.179864223,8.314275126,8.254906965,8.236094731,8.068313408,8.073146441,7.795628907,7.87852579,8.252019196,7.837296479,7.837994245,7.8312948,7.774589673,7.673439024,7.82849606,7.838431964,8.242696313,8.033851452,8.078668416,7.6510191,7.909893062,8.245808678,7.750648088,7.798298256,7.779767374,7.599007768,8.014905558,8.026633002,7.794991161,8.011843399,7.966973717,7.913396883,8.008807489,8.057636666,7.870771077,7.872170107,7.860606779,7.685371371,7.605143272,7.646770765,7.368189931,8.013175915,7.793212142,8.009839198,8.082285577,7.842710334,7.821567841,7.854821927,7.283312875,7.482855335,7.496002905,7.482404053,7.974811135,8.041061217,7.71403599,7.921099872,7.938506318,7.896116378,7.779218566,7.809024964,7.463393122,7.72107348,8.014499461,7.887158593,8.085459312,8.075295102,8.08940166,7.925214384,7.965181412,7.686524415,7.858973465,8.257385092,7.79421043,7.820032812,7.803986535,7.693352645,7.846634165,8.020439107,7.800013843,7.940616718,7.9410955,7.932787988,7.834232191,7.834348434,7.769122554,7.563056805,7.947395908,7.928690164,7.852235028,7.843974526,7.787088041,7.618329447,7.930963346,7.807731227,7.818785674,7.746967216,7.524012075,8.079759346,8.043541687,8.094343227,8.063962616,8.02940401,8.055007472,8.044618885,8.193702793,8.159016415,8.151662672,155.0124864,246.1368404,338.5534629,2320042.16,2252923.82,6.311756556,6.211985006,6.025442648,6.346326003,5.739219555,6.343005604,5.944212875,6.08334676,5.956197903,6.015252284,5.94796606,5.665050069,5.717549759,5.786556795,6.3342048,6.503563459,6.341069395,6.381965263,6.145533622,6.092213461,6.268239912,6.400973757,6.17892105,6.215562898,5.991959825,6.20775052,5.61087391,6.143293322,5.966492891,6.382568313,6.183059687,6.193802617,6.065575648,6.219902988,6.350963338,6.154129323,6.093602551,6.205862181,5.746638335,5.645072742,5.899620459,5.79676129,6.517952917,6.081111452,6.487505322,6.304557736,6.297226076,6.366457011,6.383196263,6.387457413,6.046238907,6.22702489,5.933609126,6.095033377,6.50831515,6.224741191,6.343752362,6.175115841,6.311641623,6.167392223,6.265270499,6.318328196,6.103708273,6.311285778,6.150993553,6.701160755,6.709743802,6.172002397,6.447682726,6.399268316,6.401077499,6.292863224,6.467714901,6.210759007,6.391752714,6.730009586,6.156095178,6.32471443,6.264741199,6.355069354,6.527517567,6.232372041,6.585431964,6.349393385,6.417996075,6.130796461,6.088027712,6.09882328,6.140542784,5.723250369,6.33109838,5.730075323,6.50690821,6.498043645,6.504440438,6.357509234,6.363308336,6.269551235,6.55473221,6.512229346,6.483354016,6.365909165,6.303616593,6.268279968,6.525685189,6.530884062,6.338593865,6.350407413,6.259943035,6.585750728,6.574028823,6.382690812,6.527017524,6.159583742,6.526734803,6.363948855,6.520739831,6.681847895,6.400853865,6.674641299
3,73.83333492,116.3374852,54.97770276,89.61754743,73.20707201,73.81539054,234.928581,1.647058824,132.9220271,169.405299,168.5477209,118.4013278,168.0055092,167.9032272,23058.09622,379.7032145,0.249442109,0.089871032,-0.27747993,-1.14683829,-1.226283358,-0.258835944,-0.517484807,-0.346586703,0.025374856,-0.362771859,0.005922965,0.061652751,-1.698217764,0.138238152,-0.069436911,1878.628852,-0.082661857,-0.082598127,21278.65024,33527.46721,15809.20603,25830.18887,21101.44181,21256.33707,67711.81382,475,38257.03426,48785.90916,48539.72954,34040.70848,48392.88707,48354.31067,5102546.368,109347.0471,71.83932725,-0.060266128,-0.087214407,0.011669966,2.75E-05,0,0,71.9448181,101.0668046,33.40047952,68.08580399,64.03015074,73.50760343,204.2031675,1.574394464,120.8661286,165.785804,166.4659126,133.1484182,162.32856,162.8161484,42110.24118,381.4941091,0.22810913,0.561909938,-0.684315075,3.742849942,1.685892394,-1.261206877,0.419102957,-1.253088231,0.083044983,0.916215637,-0.145687154,-0.02364164,1.566216128,-0.383025795,-0.214527274,1541.714917,0.341450971,-0.075491844,20741.42975,29116.78039,9639.677617,19634.57839,18450.67256,21220.69369,58823.00379,453,34853.74977,47741.4001,47944.37914,38439.95162,46742.83793,46880.43723,10889009.53,109880.6746,65.69542951,8.531131375,8.146307068,8.162745879,8.021855602,7.978269207,7.809554172,7.574662222,8.15778633,7.062986928,6.918508065,7.076970401,6.701923206,6.945281048,5.768015762,6.505777304,8.291739414,8.251876365,7.938602605,8.002430448,7.778622623,7.609147909,8.27463634,7.417917386,7.405219341,7.406191927,7.044623514,6.887939531,6.855456942,6.815953504,8.26720269,7.890782231,8.022980805,7.760107669,7.599647546,8.264404342,7.362771517,7.286808161,7.413254181,7.042160916,6.763350037,6.339641167,6.444462367,8.101853451,7.840845775,7.951230756,7.603683121,7.917928182,7.564804805,7.628367195,7.495542841,6.825861282,6.825451607,7.276201523,7.278674291,7.945728442,7.796118884,7.70330078,8.015370746,7.635653918,7.602941855,7.650459472,7.035094035,6.71385469,7.002712009,6.917263015,7.96606355,7.639570962,7.779251222,7.758191716,7.769183534,7.617428589,7.170756565,7.066112719,7.124242158,6.80281429,7.91304791,7.655981586,7.450590236,7.400267989,7.497641626,6.893447674,6.927156712,6.739300956,6.519730255,8.285303272,7.406945225,7.366919512,7.426891409,7.07275342,7.12632553,6.821798772,6.792581194,7.710129711,7.704421386,7.695682615,7.213518532,7.217763571,6.614288399,6.726404541,7.711781179,7.679500316,7.238701465,7.200492653,6.03295586,5.802828159,7.696587241,7.165091546,7.223397815,6.434260826,6.628991864,7.688262281,7.595726545,7.726832595,7.691858061,7.665490719,7.700378524,7.704667028,8.031742702,7.962894305,8.017873424,160.3405431,164.103375,258.1050988,1719517.178,1601907.768,6.347918864,6.313494156,6.323902146,6.05728262,6.185635029,6.217928774,5.845120186,6.335358407,5.880732113,5.762441917,5.883995933,5.810562427,5.889574634,5.615725239,5.599493112,6.742245024,6.620306914,6.540060545,6.510992087,6.415406802,6.206800153,6.679716972,6.350739316,6.386960863,6.232123889,6.033749623,5.942226711,5.939955107,5.840113727,6.726068003,6.155408253,6.517848264,6.283321699,6.151712153,6.689085228,6.222488449,6.135235857,6.266293736,5.831966847,5.837668779,5.697737079,5.717149939,6.931642234,6.475933744,6.558602928,5.573932583,6.443789421,6.425201987,6.580459648,6.290208687,6.296671328,5.977735928,5.959967381,5.744705803,6.801349442,6.485080767,6.324536987,6.517271564,6.324844664,6.274863726,6.459543859,5.891514377,6.13327152,5.64521118,5.967539788,6.804940323,6.342728666,6.413165677,6.452743435,6.488488891,6.430631429,6.26913835,6.25191928,5.864037491,6.126872163,6.976889836,6.25024127,6.361033431,6.143125475,6.359279098,6.021258632,6.328348183,5.811943703,6.130446184,6.713531156,6.324553641,6.306927003,6.194892246,5.75707226,5.701637746,5.652335444,5.776983632,6.628340192,6.628535403,6.591008808,6.430395851,6.244086862,6.084065726,5.97264039,6.713181817,6.4900362,6.536481458,6.202442706,6.284607821,6.02676996,6.644336202,6.320156101,6.285836771,5.829701386,6.006434426,6.725111119,6.352425475,6.532998436,6.07892739,6.652052303,6.168984909,6.424411896,6.620190657,6.260831458,6.554404332
3,57.8702173,94.64201766,35.16708007,81.4907668,61.20462836,59.82878449,193.0665907,1.458041958,140.2525742,168.9890332,165.8019322,140.6250121,165.4568359,165.780721,35206.24857,396.4729571,1.586409606,0.01429932,-0.132228798,0.148097835,-0.119517718,0.01772429,0.100868248,-0.394481632,0.05011655,0.00613383,-0.041560615,-0.114358668,0.009278006,0.136810838,-0.002071803,622.6168816,-0.073055068,-0.492882246,16497.6343,26974.26531,10016.30166,23224.94082,17448.41245,17056.93755,55018.47969,415,39981.81308,48156.71871,47246.44084,40060.3165,47155.54186,47242.42277,10068336.27,112994.7904,452.1267378,0.539090492,0.040085504,0.017129214,0,0,0,53.76731781,97.06715673,47.136718,84.49218663,61.30781789,60.62117004,204.8110409,1.681818182,149.2400247,173.3438965,171.9659143,143.1190809,171.884478,172.1172708,38403.26244,388.0996215,1.277865177,0.038513899,0.035378366,1.327164286,0.270096128,-0.169604754,-0.237425036,-0.047575768,-0.008158508,-1.661129963,-0.193089185,-0.008504483,1.237418499,0.012134949,-0.139141517,792.5686684,-0.007757846,-0.397337253,15330.38241,27687.71878,13459.58351,24132.24105,17481.55808,17291.08528,58417.02015,479,42503.35224,49399.2811,49005.26009,40859.82873,48982.59154,49053.94536,10911422.63,110607.9196,364.1915753,7.689440157,7.023282673,7.0236824,6.724806528,6.771791717,6.341800152,6.431361302,7.02545446,6.397312079,6.386122925,6.40555642,5.915951162,6.005120467,5.811698992,5.857561658,6.735593277,6.733562688,6.575819402,6.551475759,6.364206452,6.612010132,6.73499068,6.383238704,6.379068101,6.385063301,5.844457857,5.858349634,5.624420074,5.708186374,6.735713337,6.573209793,6.555763693,6.359787672,6.634415207,6.734399007,6.381451132,6.375578003,6.384895591,5.83750355,5.862041471,5.687947419,5.723427009,6.468595495,6.458465796,6.316691708,6.826495934,6.574226544,6.32998775,6.328175122,6.33018758,5.97075048,5.973275019,5.291320567,5.628641365,6.561598789,6.584525119,6.478051863,6.552294205,6.608754982,6.603018597,6.612516802,6.266592379,6.269118511,5.810370191,5.783977627,6.265278011,6.724276106,6.362712183,6.231913562,6.230954999,6.231450241,6.035465668,6.036157748,5.671165929,5.635807311,6.538469283,6.622501785,6.743773686,6.748142773,6.754741605,6.543722356,6.545483044,6.148104094,6.160596015,6.735241099,6.382902873,6.377922112,6.385449802,5.830532096,5.834544574,5.609378877,5.724160805,6.273801212,6.270304092,6.27398546,6.060550424,6.061687901,5.705804175,5.711899417,6.267625992,6.270120368,6.056782453,6.056583856,5.705572652,5.710760019,6.275086286,6.058512283,6.061234101,5.693209447,5.692805872,6.168785636,6.16670689,6.202902595,6.200106584,6.166321965,6.199934667,6.198523234,6.444616452,6.439427981,6.437241444,323.3179612,184.1671623,408.4703388,2687816.102,2598918.293,5.777647595,5.260227997,5.259424256,5.216855315,5.112920896,5.194502145,5.252800197,5.254945127,5.230315335,5.239739352,5.225202817,5.093849229,5.058673648,4.866295128,4.992015882,5.725487239,5.689125044,5.687152829,5.723139428,5.61984811,6.069028293,5.711830484,5.648391806,5.652949237,5.643124693,5.564689747,5.563378805,5.501382132,5.519316571,5.710962179,5.674228248,5.755313797,5.573309071,5.903478827,5.695768235,5.632108364,5.631678967,5.629329092,5.544789843,5.545098238,5.488033056,5.495700343,5.745592294,5.733158237,5.682901676,6.079662076,5.671934694,5.659992556,5.657259056,5.660255166,5.603712077,5.60229859,5.531192641,5.55032407,5.790400464,5.610893236,5.729469045,5.722365988,5.696078291,5.704934212,5.704428017,5.620927927,5.619302761,5.55547102,5.53450292,5.811448902,5.982814192,5.594959997,5.574653545,5.588464353,5.595649103,5.579661164,5.571330753,5.544663234,5.573360866,5.939119021,5.872151707,6.091260513,6.079831913,6.069288442,5.93345272,5.909414671,5.708489857,5.632857365,5.70760419,5.645871871,5.649832882,5.63838376,5.555355783,5.555889629,5.493453711,5.504058415,5.693372936,5.693211831,5.685677923,5.637125196,5.636482396,5.563018881,5.558359983,5.696760311,5.686641461,5.636684377,5.633621071,5.570659223,5.57000667,5.684181678,5.633970061,5.632467446,5.562992896,5.562217097,5.658263631,5.655084085,5.626964589,5.62991201,5.659718577,5.624142079,5.632135692,5.633600193,5.630815129,5.648749046
3,227.6139631,437.3742552,284.041265,365.2323596,280.1369708,295.7652382,819.7249421,1.681506849,149.4178447,162.2930773,174.6057009,152.4262872,168.3481324,176.2497657,25812.20086,382.0909859,0.557045279,-1.157926689,-1.696236952,-0.786396376,-24.77441201,2.197807351,-2.567048909,-2.086547808,0.023972603,-0.186239732,-0.171844542,-0.002577205,-0.565214386,-0.346469548,-0.059333528,1411.469546,-0.037604138,-0.190437633,66234.54815,127265.0926,82675.61273,106253.6194,81511.54109,86119.17263,238493.9917,489,43508.03745,47225.66781,50811.66423,44370.67264,48984.85169,51293.85171,7535774.92,111185.2496,162.1001761,-0.046442488,-0.094520304,0.025121886,0,0,0,224.0792523,437.0509292,284.6142346,294.6434524,251.4744597,303.5787307,815.9034338,1.654109589,148.6212024,164.026909,174.8360427,150.8621226,168.2367513,176.0209617,25675.69392,382.6381339,0.55471573,-0.72895174,-1.812892521,0.450667629,9.894481332,10.75457794,-3.612305403,-3.394966094,0.001141553,-0.187653505,-0.537145484,0.066070049,-0.25097034,0.175341831,-0.041408735,455.9237056,-0.14035997,-0.186194765,65202.41261,127170.6814,82842.91984,85877.69277,73230.4795,88400.71243,237378.1113,481,43275.41791,47731.94667,50878.92403,43913.93656,48952.32839,51227.04093,7496052.64,111341.5162,161.4222774,10.60947715,10.59447776,10.5499074,9.194996346,9.270657828,8.099438946,8.090414189,10.59655661,8.458853362,8.74047252,8.454909684,10.31963344,9.864386735,10.10171913,9.696085055,10.79715049,10.67813926,10.03917259,9.740357873,8.502783436,8.552827045,10.77503271,8.250360738,8.475729467,8.366427593,10.36903041,9.943438554,10.10595804,9.683932638,10.77983901,9.795652913,10.07707368,8.289622716,9.026982218,10.76861194,8.332913855,7.679543443,8.299096861,10.38295734,9.134444973,10.15644527,9.772504943,10.07917042,9.441527179,9.697347369,8.834181568,9.942036178,9.469219835,9.569024468,9.274648787,9.369950877,9.142405415,8.895937935,9.105707182,10.16636109,8.737000521,9.807361587,9.913860264,9.433364626,9.244031695,9.495431437,8.793981817,8.198366269,9.154347328,9.182789812,9.984238926,8.813388882,8.386273717,9.65743578,9.733772943,9.497033623,8.964136481,8.853497887,8.224101462,8.890951415,10.02768071,8.671817283,9.568404929,9.426586202,9.637545149,8.96662643,9.265574285,8.746790406,8.708231544,10.82546096,8.223244512,8.188454704,8.401417812,10.37900926,9.980361278,10.14173381,9.752985595,9.978445698,9.923789444,9.923267177,9.338853406,9.385754313,8.920028974,8.935947713,9.973644043,9.832055478,9.442881262,9.35029371,8.907437964,8.815030489,9.972688928,9.238927598,9.421461404,8.763581293,8.856752042,10.57606666,10.51734977,10.72063012,10.70721558,10.56207536,10.67805883,10.70579248,11.02951538,11.00841232,11.03243294,35.97378772,40.21312387,49.19413513,2638013.139,2606384.159,7.721364003,6.812731114,7.12642191,6.639382528,6.869483527,6.594573618,6.424406819,6.40717837,6.208736726,6.500155491,6.558202227,6.692912495,6.596426568,6.622225158,6.773657086,7.905608973,7.255439602,7.325613178,6.86016565,7.102721173,6.576616776,7.263941547,6.507607691,7.004959005,6.580193597,6.362224825,6.322093812,6.530601166,6.454599592,8.033053551,6.953258633,7.584895839,6.497877356,7.090358583,7.338412992,6.602528121,6.786584433,7.045364438,5.941847936,6.342962491,6.58497755,6.945499294,8.039074782,6.790963932,7.515366003,6.648303009,6.782382147,6.66566394,7.428470097,6.733228213,7.101982337,6.996091317,6.51564738,6.297848385,8.350486969,6.777959766,7.955206731,6.892428271,6.886322398,7.206424853,7.29118167,6.6104359,6.912762947,6.580542587,6.660621067,8.14891218,6.812010357,6.218076639,6.53914551,7.277766707,6.782088436,6.964021287,6.628952077,6.652507667,6.589398174,8.37334571,6.46612042,7.0550062,7.279150062,7.402431956,6.881543507,6.977175003,6.598799401,7.0200625,7.473136972,6.380098687,6.468400233,6.470761571,5.773087854,6.531650417,4.987535253,5.337571573,7.44481936,7.304980811,7.421534244,6.861443089,6.870986292,6.318922544,6.879031807,7.981984059,7.346797908,7.314368393,6.768337445,6.798163592,6.552718119,8.051335356,6.76637935,7.511734616,6.543398677,6.985938046,7.80804077,7.171607175,7.511995207,7.044704075,7.786837013,6.955231498,7.453297738,7.788321586,7.241468349,7.700281922
3,102.7587089,195.161355,128.3098457,177.6953927,125.6179495,128.2021839,386.8009726,1.527210884,158.4535911,170.2363583,167.5297877,145.4712138,171.0255397,167.9120405,34261.89912,396.0819324,0.823064697,1.022824909,1.992493604,2.197330525,2.856802227,1.111577354,2.008537753,4.27842777,0.03968254,0.570743021,0.183354006,0.005169962,2.039925051,-0.158623688,0.581134368,73.78336802,-0.264670864,0.267106013,30144.7319,57260.20808,37701.83397,52188.18714,36871.64404,37653.08775,113488.2373,448,46509.96414,49886.25174,49090.57779,42768.07563,50111.41639,49221.62793,10033035.68,116053.6159,241.1579563,0.207291894,-0.067370925,-0.004747936,0,0,0,96.59303636,187.7584384,127.5341184,174.5033474,123.1082714,128.4665406,371.0334683,1.527210884,154.1275215,168.3602803,164.523239,153.5574534,168.0483953,167.3788943,38703.85242,394.1811428,1.021154522,0.862638287,0.2259663,2.472486029,-1.039575499,-1.582839721,2.726583611,-2.280002583,0.01814059,0.863282173,0.073265866,0.08190334,0.653305444,-0.116314761,-0.009512761,68.77074378,-0.250621799,0.332937775,28314.59726,55088.34122,37488.29307,51258.3997,36139.57738,37733.36853,108860.8035,448,45216.84431,49326.25642,48204.27349,45000.21426,49227.76984,49029.47129,11343391.08,115497.506,299.198275,9.37370291,8.942937466,8.836357186,8.434102479,8.432708309,7.426700848,7.390950864,8.91873806,7.306278502,7.245832173,7.334613367,8.200447101,8.562588175,8.4269014,8.28463338,8.926572119,8.858381437,8.36300735,8.47613569,7.73648844,7.66010704,8.916607788,7.751502845,7.782445656,7.640276176,8.432805888,8.150916947,8.259530329,8.166146701,8.903647718,8.321976724,8.570083382,7.51358872,7.712740189,8.89511129,7.752156613,7.634985388,7.81683898,8.248338381,8.273213916,7.808872658,7.776934278,8.541034352,7.964608501,8.244202613,7.424146303,8.366256814,7.882660844,7.872303461,7.781795234,8.273867051,8.428405138,8.206086714,8.182702293,8.547248189,7.536741919,8.195018771,8.530818893,8.036581248,7.942608543,8.054782158,7.960898699,7.912177996,8.162143722,8.053335621,8.323844657,7.31943449,7.713704705,7.885638525,7.922333442,7.799866401,7.212815791,7.100186698,7.478985132,6.592806802,8.351564744,7.488339048,8.005230075,7.917731317,8.080319911,7.378208151,7.552530643,7.432078245,7.078776312,8.92905641,7.742603758,7.720873629,7.730809489,8.380736424,7.934090461,8.131868669,7.88594651,8.273809527,8.237196054,8.226114687,7.761958855,7.771262434,7.056038275,7.061975245,8.260886789,8.186567577,7.78179552,7.72233968,6.535572854,7.227174812,8.261122327,7.721436174,7.799855502,6.915984088,6.974730377,8.495374899,8.453653865,8.562549351,8.52454211,8.479930818,8.525327557,8.537450951,8.857189457,8.807431388,8.829228264,140.22417,73.64381648,231.7360741,1925795.77,1871162.89,7.242722283,6.801276739,6.571568085,6.493492834,6.378482558,6.462668053,6.331234799,6.709778312,6.294628428,6.195225527,6.276462126,6.219754998,6.284759902,5.86886807,6.487239384,7.170127718,6.814097572,6.776904225,6.687184646,6.718016228,6.561631401,7.006738355,6.718234308,6.845848983,6.617539211,6.314640961,6.329467595,6.180851624,6.431899064,7.10024122,6.463208183,6.945647757,6.204105086,6.673461487,6.966301324,6.529541637,6.493224481,6.65536133,6.16429455,6.107199977,5.835390044,6.539338989,7.23651714,5.961355484,7.009164091,6.15568997,6.617328245,6.302176531,6.530426951,6.317831768,6.193019898,5.969261389,6.009751885,5.854842828,7.157476549,5.824181765,6.980468859,6.782570452,6.565615198,6.488874287,6.704387668,5.881088887,6.284707736,6.019919707,6.247123499,7.446553854,5.710985118,6.464476634,6.448335707,6.499258683,6.228609843,6.158919691,6.079138104,6.030504549,5.785763045,7.313054174,6.594934312,6.6325874,6.465566084,6.671813742,6.176805601,6.51794017,6.067362571,6.34716045,7.082460684,6.676365713,6.702738832,6.578017089,6.292916039,6.223429511,5.785290939,6.392601181,7.070020466,7.010930998,6.929568085,6.537830616,6.545022217,6.112541077,6.198439855,7.17275381,6.866927042,6.782739046,6.395362159,6.44360704,6.117339152,7.074419703,6.560852204,6.705285695,6.195109616,6.195592909,7.017708239,6.577891188,6.601600966,6.414187675,7.008383518,6.32670022,6.728446605,6.917955891,6.532693408,7.006752313
3,110.2927345,104.8093033,59.68606221,80.38996792,51.9181946,73.23059895,243.8451838,1.72972973,127.9575692,152.903837,164.7392718,108.537701,151.38275,169.5962114,25098.07394,342.9727453,0.705108269,-1.927744179,0.477397996,-4.683636002,-1.109498634,-0.065306771,-1.715782784,0.092341907,-0.103603604,-1.35702214,-0.739673697,-0.001190149,2.993881117,0.635649867,-0.055219882,757.1879894,0.163558039,-0.23503609,32646.64941,31023.55379,17667.07441,23795.4305,15367.7856,21676.25729,72178.17441,510,37875.44048,45259.53575,48762.82444,32127.1595,44809.29399,50200.47857,6992005.577,101519.9326,208.7120477,0.095793777,-0.026887483,0.015350175,0.052099887,0,0,104.969819,173.4164497,95.87783643,50.28751194,52.52946031,51.03862373,263.2281691,1.665540541,113.0040185,145.8973313,164.0347729,138.2784428,138.1978978,167.5256728,26679.3663,344.776097,0.953019833,-1.224198905,-19.28836964,-1.143092627,12.06253427,-1.199672636,0.796082095,0.171771063,-0.088963964,-0.627514151,-0.147581706,-0.157686142,-0.657086442,0.889761228,-0.24092876,242.9155112,0.315584313,-0.317673278,31071.06643,51331.26913,28379.83958,14885.10353,15548.72025,15107.43262,77915.53805,491,33449.18948,43185.61005,48554.29277,40930.41906,40906.57775,49587.59915,7892364.128,102053.7247,282.0938706,9.023669394,8.854414663,8.771349585,8.635090281,8.825349645,8.28367447,8.61666827,8.804363816,8.105745612,7.857929106,8.031756391,8.373476745,8.300179552,8.068619136,8.515871083,9.077214907,9.050354251,8.878949091,8.900857165,8.202892552,8.695327205,9.035786403,8.334973239,8.382098202,8.418070505,8.263019175,8.643112429,7.875251545,7.939067623,9.087678678,8.880593466,8.77447976,8.316839861,8.545837633,9.063762976,8.411464176,8.39678255,8.413575612,8.61018839,8.664493595,7.895846719,7.805845348,8.863737682,8.790045714,8.132338601,8.678115692,8.838380809,8.510270839,8.509977868,8.489586728,8.063260538,8.420474875,7.600235339,8.107358522,8.977047701,8.445952135,8.896742324,8.835161264,8.473554636,8.438836033,8.420562098,7.920116052,7.907928788,8.082411196,8.083483797,8.778110137,8.267816693,8.243548772,8.56065534,8.56954386,8.551743454,8.575589943,8.540785691,8.215063334,8.233556168,8.954502847,8.614893424,8.461464711,8.44416003,8.467381823,8.256410038,8.26372436,7.691321923,7.674718209,9.071631004,8.456583847,8.365802801,8.449354961,8.655018436,8.667838394,7.946799524,8.014449294,8.685033466,8.651461028,8.689144775,8.413914823,8.466555727,8.063586508,8.118885384,8.635991934,8.651430859,8.40134823,8.428002434,8.042812325,8.056369755,8.710394523,8.411163133,8.491490257,8.076793419,8.176994221,8.59043252,8.619428745,8.529273115,8.553090086,8.704603074,8.561567569,8.657443671,8.729718875,8.724320597,8.856229827,145.776415,189.0715954,316.8187737,2296713.033,2585685.309,7.482601016,7.259151943,7.389762943,6.942495123,7.323833774,6.458416895,7.271978023,6.926173625,6.764656889,6.964607761,6.846015436,6.760321785,6.91321552,6.33546667,6.761607728,7.996852012,7.58436561,7.847046067,7.218127505,6.754298474,7.083613775,7.529274712,7.677519706,7.510815788,7.639737554,7.230988457,7.30596291,6.965974757,7.225881891,7.931534622,7.442930079,7.447199954,6.79335941,7.3553862,7.420858473,7.260633325,7.070595263,7.34804428,7.070471741,7.354054379,6.742179396,7.270725215,8.050693859,7.167812192,7.299383578,7.048631863,7.780105188,7.595394774,7.562793673,7.761071049,7.43342683,7.383069362,6.910313071,7.300419383,7.656721733,6.910303475,7.553599455,7.041910662,7.119359085,7.207806378,7.235220653,6.813006548,7.38643792,6.349060192,7.126764218,7.844738243,6.795714731,6.683218656,7.676879245,7.593840466,7.540608189,7.43149595,7.500657955,6.891741462,7.393448309,7.715613412,6.964456407,7.083917083,7.158672589,7.221791762,6.857434031,7.349148886,6.472448606,7.133580648,7.973734757,7.439824459,7.121285084,7.567694952,6.928456673,7.419006156,6.945404937,7.371535177,8.116292011,8.063010684,8.076773404,7.772920518,7.844878513,7.580121847,7.598953766,8.080609216,8.011846353,7.734777354,7.769860137,7.534460491,7.461146997,8.133690602,7.818871412,7.885230423,7.593089777,7.627074168,7.889591237,7.719888728,7.684585227,7.518334058,7.9585578,7.646134956,7.754219828,7.705832913,7.531614787,7.774184926
3,67.74821429,106.6738789,87.94243168,84.28029663,55.69761308,50.38511665,245.1575948,1.865517241,133.1145249,156.2772098,168.1206949,106.7125397,153.715638,168.2061497,36462.36277,316.5147742,1.018724121,-0.04937633,-0.844485489,0.205928009,-2.060918452,-0.717577414,-0.556583579,-3.158191211,-0.056321839,-0.350819554,-0.28382712,-0.103009021,-0.83486151,-0.460835977,0.169235003,511.2118107,-0.341169204,-0.323089507,19579.39236,30855.701,25329.16978,24361.34667,16099.54294,14521.01803,70889.33755,540,38447.27083,45143.63853,48576.42193,30818.07836,44405.23203,48619.52108,10016512.81,91449.53387,294.411271,0.068394743,-0.097739363,-0.011754906,0,1.50E-10,0,66.00422444,136.4076086,73.19611041,105.2246874,73.28856667,55.86142669,264.5152223,1.796551724,132.8053102,153.2268453,170.8723544,112.7072252,153.8118676,168.3981082,59720.40123,333.5039572,0.960498602,0.033400067,1.372538598,-0.164441722,-0.634932459,1.427896855,-0.303930544,1.270316183,-0.028735632,-0.462947678,-0.187984598,-0.069882692,-0.690989143,-0.607442295,0.164419888,2188.187419,-0.076546639,-0.307936002,19073.63531,39464.50635,21052.73661,30418.39504,21208.06713,16109.14794,76502.39823,520,38357.59858,44259.03284,49374.40319,32556.53715,44433.13863,48675.18904,17311411.4,96376.34098,277.5840958,8.68429651,8.434849937,7.489330091,8.345300368,9.223107041,8.236375975,8.346766859,7.91582845,7.47585413,7.799330267,7.751724741,7.755693794,7.422135469,7.627879231,7.270006769,8.801729186,8.740099154,8.646701394,8.751832426,8.410224165,8.353608776,8.733313706,7.906870665,8.067418246,8.041891759,7.743057131,7.4839739,7.196664821,7.611734551,8.847162726,8.583100088,8.871832769,8.307045308,8.650350863,8.771832575,7.945417507,7.884296706,8.160366276,6.47442672,7.197236009,7.723673935,7.087399281,8.695700069,8.582551433,8.5655968,8.284153659,8.674182684,8.182008392,8.251084735,8.170255491,7.874285615,7.784590037,7.627795852,7.314997407,8.838179057,8.212696682,8.635483724,8.837891997,8.159977483,8.02885025,8.30068171,8.424024069,8.554207905,8.040254672,7.969402919,8.574691405,7.929117987,8.409529236,8.236965997,8.282213062,8.165482593,7.211255512,7.118196208,7.723654849,7.682180421,8.73611179,8.597844684,8.097517136,8.300326825,8.378622308,9.132696735,9.165079641,8.793238064,8.932229122,8.855154168,8.010542241,8.062250511,8.132313576,7.333867213,7.385802392,7.806143249,6.852640304,8.42704893,8.405792142,8.406723634,7.979958589,7.520593577,7.853947623,7.804285872,8.422329163,8.356414424,7.449078857,7.69401706,7.853328422,7.839026048,8.42293996,8.163711158,7.594022969,7.752605581,7.892895901,8.353971045,8.311478044,8.386146229,8.374787379,8.341762867,8.336022915,8.364523066,8.699144741,8.680311788,8.693714888,174.8416862,120.4670595,307.972907,2321391.241,2161946.372,6.889463483,6.686674914,6.363492924,6.689741147,6.345520987,6.763233083,6.257480243,6.612187189,6.211468513,6.467546436,5.921555095,5.897376129,5.528550355,5.772610857,5.660161992,7.62293752,6.8227559,7.249850929,6.337546287,6.982067839,6.244908542,7.196171629,6.903281873,6.885543404,6.786405384,6.207832187,6.180244463,5.799564381,6.085345891,7.243274761,6.74668121,6.786391622,6.443602085,6.223234841,7.003630983,6.572207801,6.373172111,6.757848929,6.195382402,6.213225994,5.576212402,5.807252765,7.310517191,6.409949009,7.073844219,6.014122264,7.080645768,6.726933668,6.818619091,6.717096824,6.075529305,6.016150636,6.013303071,6.277556208,7.053925992,6.053316201,6.107197056,6.654447627,6.450560591,6.320422542,6.665645716,6.193081663,6.051504088,5.897094299,5.844786779,7.45417387,6.539784343,6.818915961,6.739140247,6.852495575,6.786736838,6.293079101,6.178751702,6.1404922,6.192839319,7.065138314,6.256012869,6.566201503,6.723945508,6.58890256,6.335904248,6.476328046,6.324947487,6.094125577,7.452002084,7.020234694,6.897047073,7.083889957,6.278724955,6.357374639,6.22378882,6.302278645,7.440760356,7.373419501,7.379700568,6.985964836,7.060396474,6.709975936,6.679633203,7.469290179,7.339599655,6.998501612,7.075220512,6.543763451,6.7094488,7.529252414,7.051214558,6.99645866,6.618173702,6.604415312,7.261027002,7.125839124,6.948615873,6.9918897,7.323217422,6.867164944,7.019971908,7.161983183,6.989367877,7.174185822
3,114.6924493,127.8491257,127.2977077,103.3911086,57.14254038,109.0333129,294.4299098,1.756183746,124.3289534,138.5843631,166.7247374,148.0825818,139.724813,170.032366,44889.00362,333.9476005,0.942887065,0.285081984,-1.72823489,2.40674613,-0.173064168,-1.524597894,3.960628926,-4.874176109,0.021201413,-0.145558578,1.128923771,-0.700013906,0.003092732,0.529851252,-0.465109343,1253.474437,-0.128904508,-0.3029725,32363.76745,36053.2807,35905.15808,29155.93467,16114.15298,30672.69035,83028.76281,495,35057.16938,39118.28329,47022.63733,41741.81131,39441.20548,47941.13793,12173356.82,94174.10805,265.8941522,0.068394743,-0.097739363,-0.011754906,0,1.50E-10,0,120.6558005,122.2324743,156.3033289,95.56772188,53.54872661,153.9958095,282.9549423,1.71024735,135.8383017,146.7321807,168.1607547,150.0594268,142.1478884,169.2414034,34397.32286,338.0037849,0.596143793,-1.356021515,-0.538736543,2.501625716,1.515942417,-0.727252619,-6.922253399,-2.350354244,0.041224971,0.019297606,-0.482511455,0.516724072,-0.98405572,-0.618679366,0.081256795,780.245083,-0.577839953,-0.195282285,34009.63454,34463.76837,44096.66898,26941.91622,15097.10368,43402.35616,79781.34699,483,38293.03081,41367.51506,47456.36745,42297.12916,40048.71215,47719.44519,9185711.296,95305.80353,168.1125497,10.31298013,9.619566725,9.449924553,9.025100668,9.148243173,8.707793293,8.966208338,9.92653642,9.708619829,9.775341488,9.418856046,9.724348606,9.653320199,9.401311512,8.916464542,10.03225853,9.784772066,9.789134403,9.385212019,9.544847965,9.054531316,9.853935339,9.420111623,9.528825571,9.302880822,9.083569681,8.988422443,8.621674004,7.922877095,9.758300675,9.389525123,9.686666558,9.02208618,9.118801684,9.742149286,9.325950524,9.334453294,9.299945273,8.965915961,8.775491724,8.484471692,8.260067613,9.845736356,9.176486822,9.72018149,8.618230652,9.697858422,9.522562408,9.573893034,9.408042343,9.232477157,8.829262094,8.601077874,8.704487851,9.716304226,9.123209406,9.537775374,9.622125971,9.51963541,9.407628065,9.558652801,8.945255164,9.19800809,8.687688388,8.760792927,9.679598788,9.009942127,9.429430735,9.447174979,9.49201754,9.431005622,9.326362081,9.159696422,8.99327125,8.80153516,9.598255956,9.194533605,9.298207537,9.125740091,9.444855951,8.882933935,9.307933373,8.845502181,8.913365096,9.933800504,9.493309537,9.52335211,9.328206652,8.999585159,9.096379903,8.595675858,8.512383483,9.665561884,9.663247645,9.614267908,9.342818468,9.282849624,8.916867254,8.735852581,9.69204304,9.613312175,9.342149224,9.241687572,9.018858541,8.368019926,9.624279325,9.312051432,9.310436343,8.923734608,8.843039829,9.441977363,9.37703068,9.295108658,9.238507908,9.414952111,9.241699588,9.294045413,9.370240117,9.292470567,9.372058905,81.37194469,60.09311136,239.3658342,2438098.473,2385690.023,9.365932267,7.464237673,7.301576188,6.907287055,7.869162471,7.216903951,7.643832087,7.298806404,8.337455927,7.629877544,8.478018202,8.395077786,8.146125868,8.476335145,8.250210262,9.374984392,8.97665234,8.810314812,8.862971855,8.678787112,8.567104523,8.995056911,8.91131254,8.840186656,8.996331439,8.548585524,8.473114065,8.624913714,8.319407403,9.255508997,8.624470683,9.120746299,8.553293651,8.938828085,8.887263364,8.712110153,8.606075288,8.821686772,8.569768679,8.634782881,8.461357442,8.353918825,9.25194367,8.472644852,9.195481546,8.567365857,8.655548515,8.8362945,8.713735489,8.838711582,8.70202092,8.578543208,8.33319158,8.386651523,9.31700412,8.547263357,9.180069427,8.829476645,8.772657772,8.719460257,8.888083408,8.572434338,8.568396204,8.517359107,8.449978835,9.215349592,8.512836904,8.54468559,8.795894153,8.653725111,8.76133178,8.487901336,8.616122757,8.586323987,8.450594535,9.231329025,8.685126894,8.759173788,8.474047171,8.818818644,8.415803693,8.545650655,8.477970041,8.294370431,9.571769432,9.173611358,9.193180866,9.259246572,9.021647039,8.906332934,9.074428501,8.784589384,9.782717132,9.761277741,9.746213439,9.52044482,9.471964593,9.341669222,9.330740296,9.789119348,9.728605278,9.556086154,9.411867779,9.326022867,9.290620368,9.79755507,9.484403364,9.523786671,9.3494051,9.343624713,9.548045738,9.387640122,9.34250463,9.121044718,9.479804674,9.211943017,9.192204491,9.318633624,9.064564649,9.215971531
3,77.42792757,81.0247175,38.2662613,118.3512487,85.9662365,72.47894093,198.5245993,1.812286689,123.6704144,143.263972,168.2990491,115.120077,149.8959015,170.7924354,40830.56664,312.6952034,0.767277722,-0.830613634,22.28065677,-2.275126229,-7.209777087,3.107664844,-0.701721244,10.8976038,-0.038680319,-0.322182678,-0.623426648,-0.379272534,-0.372306745,-0.52583714,0.041254053,450.8365589,-0.436786654,-0.248155189,22553.24201,23612.22036,11203.6697,34573.16679,25130.92134,21109.9458,57872.80593,529,36080.18128,41803.61556,49137.56122,33563.36088,43753.70342,49877.06361,11932117.23,91282.9135,224.0450947,-0.004355168,-0.060066149,0.024592928,0,1.50E-10,0,69.10659149,155.8973861,65.10231324,82.90122453,94.92609003,59.31830121,242.3477187,1.883959044,116.9838297,142.3596757,169.2699614,106.7455242,147.1476345,170.2713741,57240.63296,315.2120802,0.613684153,-0.182625355,-3.740758459,7.514942371,1.423357282,0.039526087,0.226371735,-2.310088172,-0.039817975,-0.277172324,0.879946753,-0.193479386,-1.301178236,0.811513232,0.13735355,3668.889699,0.142980785,-0.196682056,20168.20554,45549.91225,19062.96207,24186.30972,27756.15843,17253.15828,70712.9799,550,34118.33108,41613.32127,49423.38193,31123.13856,43029.51201,49728.38744,16722561.05,92029.87348,179.1957726,9.425841559,9.185619568,9.401972172,9.266135167,9.08575775,8.796615969,8.822460459,9.602552829,9.31631821,9.24827665,9.283389603,9.370887546,9.454698691,9.084592539,9.055450205,9.592120174,9.555635158,9.538956669,9.434752379,9.169413162,9.065731534,9.611397879,9.177639375,9.207361295,9.185971658,9.098807252,9.131678604,8.431041644,8.42652209,9.60220442,9.471169697,9.49728909,9.143898461,9.310281458,9.662918236,9.293145074,9.262672767,9.263760478,9.106454888,9.24880012,8.407759274,8.625850507,9.507675387,9.443682864,9.23972599,9.331009753,9.630342174,9.368616263,9.298851479,9.346561705,9.135455146,9.278913249,8.608808595,8.74483704,9.504101658,9.196241973,9.36252868,9.639819828,9.290750619,9.3506461,9.426535867,9.176835801,9.14602093,8.810353411,8.298439258,9.221502152,9.009088933,9.334045347,9.069320771,9.176765016,9.23004112,9.163567638,9.070846431,8.721016094,8.632920608,9.27961071,9.358862382,9.214880795,9.092485464,9.257897926,9.013395979,9.087929802,8.718375536,8.828358833,9.513679822,9.150203399,9.112097953,9.046892862,8.927067583,9.059470326,8.358415632,8.446452192,9.268920213,9.208430807,9.258971747,8.902770257,8.970562283,8.617225315,8.669260756,9.246806048,9.201404174,8.944524307,8.894159034,8.784247604,8.605210493,9.276184191,8.903854052,8.992539774,8.675735803,8.696064302,9.144170153,9.058091217,9.058297017,9.001620041,9.169123688,8.976590785,9.083546186,9.183461267,9.09355311,9.192691055,61.66503286,98.19995109,211.3941373,1381809.365,1639128.657,9.365932267,7.464237673,7.301576188,6.907287055,7.869162471,7.216903951,7.643832087,7.298806404,8.337455927,7.629877544,8.478018202,8.395077786,8.146125868,8.476335145,8.250210262,9.374984392,8.97665234,8.810314812,8.862971855,8.678787112,8.567104523,8.995056911,8.91131254,8.840186656,8.996331439,8.548585524,8.473114065,8.624913714,8.319407403,9.255508997,8.624470683,9.120746299,8.553293651,8.938828085,8.887263364,8.712110153,8.606075288,8.821686772,8.569768679,8.634782881,8.461357442,8.353918825,9.25194367,8.472644852,9.195481546,8.567365857,8.655548515,8.8362945,8.713735489,8.838711582,8.70202092,8.578543208,8.33319158,8.386651523,9.31700412,8.547263357,9.180069427,8.829476645,8.772657772,8.719460257,8.888083408,8.572434338,8.568396204,8.517359107,8.449978835,9.215349592,8.512836904,8.54468559,8.795894153,8.653725111,8.76133178,8.487901336,8.616122757,8.586323987,8.450594535,9.231329025,8.685126894,8.759173788,8.474047171,8.818818644,8.415803693,8.545650655,8.477970041,8.294370431,9.571769432,9.173611358,9.193180866,9.259246572,9.021647039,8.906332934,9.074428501,8.784589384,9.782717132,9.761277741,9.746213439,9.52044482,9.471964593,9.341669222,9.330740296,9.789119348,9.728605278,9.556086154,9.411867779,9.326022867,9.290620368,9.79755507,9.484403364,9.523786671,9.3494051,9.343624713,9.548045738,9.387640122,9.34250463,9.121044718,9.479804674,9.211943017,9.192204491,9.318633624,9.064564649,9.215971531
3,96.6970013,217.7736158,85.91043289,164.2667601,145.741259,85.99378665,309.8468096,1.953571429,144.3520596,114.5950232,166.3640507,95.40336506,110.0869447,163.1826466,118314.2372,338.3271077,0.149617486,1.237817876,6.762401562,2.309962571,-25.35389155,0.689485309,6.077392231,5.876197566,-0.155952381,-3.4907876,-0.418317384,0.664262984,9.819456596,-0.162062024,0.134020016,18915.35593,0.438421753,0.040560121,26973.47246,60915.90469,24037.22321,45757.54235,40619.83796,24051.6357,86586.6507,545,40329.557,31952.13532,46449.28851,26621.60692,30687.60826,45534.00597,15646753.26,94425.42244,41.74327869,0.131275568,-0.037518306,-0.030168612,1.21E-06,1.50E-10,0,105.7109791,248.5847476,91.4884156,157.4535807,177.1537924,97.72933914,354.6449257,1.967857143,117.7194852,95.36292138,162.6940307,74.17247956,96.57235959,164.3114845,72600.75286,356.1515401,0.49230969,2.310355419,-9.673802965,18.00876629,4.471955401,-4.581185497,6.873348806,1.894852533,-0.110714286,-0.271149132,-0.195357712,0.26156634,2.94337006,0.971081613,0.054710257,1789.004374,0.172097123,0.156211383,29529.52202,69314.29606,25525.26795,43951.63308,49390.50224,27271.68515,98993.68893,549,32881.12252,26563.34825,45390.55271,20759.74767,26958.1566,45837.57844,16893827.46,99385.01479,137.3544035,10.63071784,9.551857245,9.32802131,10.56898654,9.725974026,10.16935321,9.340641731,9.722417902,9.738439258,9.752387367,9.965213219,10.14077229,10.02566913,10.20295948,10.11085159,10.86174285,10.72786321,10.71944402,10.70357504,10.24940413,10.42563174,10.59434668,10.08832617,9.978444139,10.13458564,10.1078249,10.22129735,10.05220564,9.830009891,10.60410955,10.54796503,10.46851985,10.06934703,10.42035302,10.34721233,9.742996971,9.660330789,9.802856034,9.700950018,9.591312985,9.689384304,9.723117266,10.78966769,10.32314527,10.85476474,9.341052685,10.53385816,10.19472956,9.956582287,10.2287502,10.28178358,10.47601758,10.35603237,10.10435767,10.60578506,9.251374611,10.37223782,10.70522127,9.989332182,9.633080285,10.42994095,10.28934437,10.11157422,9.966128432,9.945424622,10.50741329,9.852880197,10.04500632,9.572526174,9.667434375,10.00484157,9.718788609,9.879626419,9.948040788,9.836103333,10.4149968,10.09033684,9.780494434,9.27823213,9.957794396,9.595595885,9.726651715,10.01040592,10.06237243,10.69277534,9.993594477,10.02971742,9.99853309,10.13115044,9.782731716,10.26890389,9.697715309,10.52054001,10.49834513,10.51743624,10.28980686,10.2642829,10.10707052,10.18332364,10.553381,10.51594701,10.34952828,10.326827,10.26246606,10.01284004,10.55137815,10.33896158,10.31765706,10.41103413,10.35411602,10.47722779,10.43867294,10.35090169,10.32156243,10.4720017,10.31963472,10.35673571,10.45663493,10.44430128,10.47082394,86.55335719,61.09554523,351.601862,4398654.944,4957979.088,7.839447777,6.939131191,6.436773385,6.520046583,7.029324186,6.331039031,6.353625726,6.995648291,6.625337717,7.549446847,6.626083022,7.169352204,6.637742485,7.220490337,7.075000528,8.553602247,8.341962896,8.49154282,8.195071167,5.591763478,8.227221797,8.133068329,7.572852155,7.379756563,7.643436604,7.932924788,7.693967466,7.643859697,7.529908464,8.478146907,7.203220154,8.331035228,5.099067537,8.086193666,7.932311678,7.421658021,7.458652047,7.931871813,7.79423765,7.474002789,7.577613293,7.462015014,8.38443934,7.140731901,6.840831286,8.166898125,8.17661076,7.265953545,7.308037961,7.292707201,8.436926838,7.458877481,8.269279079,7.79269893,8.474644123,6.181043341,8.075237347,8.06796601,8.026626881,8.050223964,7.689323267,7.419611463,7.436936415,7.195253526,7.435228045,7.640327937,5.312134086,7.003734484,6.290425164,6.938991365,6.810146237,7.131583525,7.019764606,7.483595479,6.81020224,8.075100132,7.70590771,7.304157825,7.161650771,7.428860411,7.183904334,6.62955022,7.035408881,6.286898872,9.095459085,8.049166555,8.13714122,7.910412498,8.295461627,7.319518564,8.163314792,8.397260513,9.220600676,8.95801265,9.193579906,9.241547045,8.762067456,9.088339073,9.497619688,9.423466619,9.376600142,9.446720305,9.120635796,9.601267651,9.529178435,9.488227141,9.444159338,9.248625838,9.510142918,9.184540952,9.148451223,9.247431923,8.902762548,8.889391724,9.217523939,9.037425001,8.918463346,8.989451109,8.951372682,8.999921026
3,90.62984101,115.1808085,45.73105832,81.98645895,63.90185585,79.84834691,231.2085611,1.856115108,133.5022915,137.618406,163.324456,126.6619334,135.7877183,164.2500552,33349.46195,341.7644585,0.906855415,1.179776198,26.19877009,4.297525913,6.784586482,21.08464598,2.46828691,7.0270427,-0.063549161,3.092603638,-0.48270567,-0.547557442,-0.878117087,-0.312607627,0.074385703,2687.428689,0.063254247,-0.302285138,25195.0958,32020.26478,12713.23421,22792.23559,17764.71593,22197.84044,64275.98,514,37113.63705,38257.91688,45404.19877,35212.01749,37748.98569,45661.51534,6688178.324,95010.51947,252.1058055,0.067184694,-0.105236165,-0.032399078,-0.0391189,0,0,93.41865751,208.4229133,69.00412665,112.4422775,149.9085801,83.88309613,255.7021234,1.881294964,116.3321098,121.2397215,159.29132,109.9192261,111.4704137,158.2560161,70605.9794,351.6032056,0.447450677,1.773681595,0.505695092,1.619030377,1.209121339,-0.536798191,5.749888651,1.439372803,-0.011990408,-0.456901981,-1.631247592,-0.120477307,-3.565901188,-1.18506373,-0.098660088,3118.898938,-0.120261358,-0.149150226,25970.38679,57941.56991,19183.14721,31258.95315,41674.58527,23319.50072,71085.19031,522,32340.32654,33704.64258,44282.98697,30557.54484,30988.77501,43995.17246,15037036.11,97745.69117,124.3912881,8.99604211,8.801740164,8.406081285,8.301661694,7.693509071,7.530953896,7.359564213,8.789025843,7.891090133,7.573173552,7.853637931,8.952310602,8.74944822,8.522106324,8.67466286,9.334427777,9.275777852,9.1297517,8.753910607,8.724586284,8.153104381,9.0336096,8.50924186,8.379512997,8.354867786,8.715524313,8.435857404,8.815818905,8.896096633,9.447731965,8.914736857,8.996825761,8.453335936,7.998141923,9.225049636,8.64613814,8.53049794,8.432747352,8.965326306,8.766879761,8.903178981,8.859428757,9.17513809,8.644144909,8.753260366,8.044273803,8.613475414,8.453229803,8.458663128,8.335973643,8.641174408,8.683298748,8.728473533,8.764299786,9.183075633,8.673382576,8.694510219,8.947623596,8.448620015,8.438357176,8.48140434,8.659734505,8.454498521,8.764314938,8.738183651,8.919850615,8.501143651,8.285216246,8.521414076,8.591476855,8.559176523,8.335423621,7.733308526,8.771446159,8.317157331,8.858659275,8.265543599,8.137626799,8.265219468,8.066749438,8.597679941,7.479622879,8.572230444,8.135673618,9.224397761,8.563159882,8.513980548,8.496344322,8.866389922,8.632173796,8.697226659,8.53308163,8.81953103,8.733349373,8.71938572,8.283385437,8.162489113,7.944545054,7.776957906,8.796037254,8.704821641,8.334797127,8.201021001,8.214144449,7.991552348,8.769657627,8.234215937,8.264076351,7.888402052,7.956017087,8.814293569,8.69084953,8.770090407,8.549475085,8.738653546,8.708934788,8.702941574,9.01760137,8.888458728,8.992017808,115.8353031,51.37558315,249.9142759,1351494.053,1489367.065,7.858586541,7.796882706,7.690064953,7.382623585,6.872018935,6.844255821,6.590655343,7.694350096,7.879315726,7.591220834,7.973056054,7.46874923,7.335294607,7.632286932,7.413713216,9.037418204,8.584283921,8.525365842,7.763515078,8.543738532,7.386136982,8.567107708,8.541943834,8.34161678,8.52727901,7.655856085,7.682769078,7.875216311,7.540689312,8.822286674,8.187873379,8.173980692,8.181045901,7.598567697,8.649119794,8.495361189,8.283999013,8.465473722,8.04165122,8.013515093,7.67421156,7.330107543,8.826479121,8.260394876,8.528154934,7.804509252,8.307986797,8.308285251,8.458289499,8.558247935,8.124914705,7.888889633,7.900972369,7.789308877,8.638051899,8.114371388,8.162803958,8.330387812,8.061137601,8.24814537,8.141218737,7.975469498,7.699872147,8.011639793,7.533887123,8.7399615,8.042646259,8.200297993,8.111411008,8.204821665,8.334013826,8.201616157,8.127968947,8.386655001,8.327244377,8.535124056,7.826386807,7.930943003,7.986812701,7.85167841,8.284316174,7.923937084,8.242683508,7.968274124,9.082611817,8.771059214,8.59286145,8.822018974,8.047409758,7.923396544,8.139384827,7.692562925,9.037806192,8.843259188,8.882494988,8.338803896,8.10254504,8.146271998,8.097455838,9.054566713,8.891647312,8.569073466,8.415322833,8.503438275,8.419959656,9.075466215,8.44086216,8.502129617,8.22910548,8.553154925,8.746868604,8.419665854,8.550279589,8.332590043,8.687089823,8.369545151,8.400164902,8.601475699,8.311339165,8.540836035
3,177.7836565,88.04546059,114.1501369,76.09811423,40.38217237,86.29735855,208.8119156,1.756756757,122.6987646,137.5358452,166.6627243,148.8269365,151.5032133,168.1965814,29431.83567,352.5003934,1.046265109,-0.475537865,0.832788096,1.976308726,-11.99137856,-0.035007128,-0.426457892,-19.287789,-0.115990991,-0.677920391,-0.032178498,-0.271647147,-2.645708278,-0.666819315,-0.589720196,2883.949285,0.30546308,0.337364474,52540.77792,25981.80628,33716.2917,22448.92692,11920.70297,25468.03392,61587.46777,518,36172.50429,40536.53236,49153.5592,43924.61491,44666.78479,49609.81197,6875897.374,104002.3475,308.6482071,0.18967383,-0.013384935,-0.008624837,-0.0391189,0,0,182.9089647,105.6968005,124.3318151,82.24492864,66.37191896,123.0432045,228.5351874,1.733108108,77.03107971,151.7683906,166.3995483,155.2513984,144.9017018,168.3495226,29550.86058,364.6329713,0.868273845,-1.859140423,-0.475287954,-0.061356002,-3.080358221,-1.038642016,-14.98382893,-4.889814281,-0.091216216,-3.50548298,0.176009379,0.165539096,-0.526437382,-0.019911816,0.248778249,1348.536584,-0.353942186,0.28340797,53965.79236,31129.74558,36691.06747,24193.58251,19531.09834,36346.41582,67335.57053,511,22629.40163,44808.77189,49106.46069,45813.5484,42749.96732,49709.67562,7306315.372,107560.7185,256.1407843,10.34538122,9.632177887,9.85242759,10.09150793,9.393764289,9.407190692,7.988686606,9.790234175,9.756652526,9.728448863,9.728333007,9.614852336,9.645106841,9.111303904,8.893370792,9.859699577,9.817589524,9.436955225,9.515729512,9.148234879,8.975181803,9.850424892,8.907396802,8.871211638,8.760633737,8.336670227,6.763838773,6.655033568,6.215493685,9.977045528,9.679495308,9.665136966,9.231363862,8.841349984,9.935356734,8.156026016,8.01500089,8.332078763,6.431684831,7.17198791,5.641410011,9.199089161,10.28456075,9.417330966,9.838566906,8.626099524,9.514008123,9.824167804,9.807217788,9.827673968,9.615025184,9.658388397,9.241371465,9.087864295,9.664616756,8.927622638,9.347281845,9.487791054,9.134991036,8.935635065,9.152408221,8.609231871,8.659971829,8.35003269,8.276796037,9.780802037,8.064742051,9.162471105,8.109835232,8.067406798,7.997363582,7.8833969,8.078531239,7.793621431,7.663295409,9.493764282,8.930349811,9.492696674,9.427955728,9.505568791,9.00102716,9.0656494,8.365624567,8.497167613,9.964004352,8.394706929,8.323302499,8.652249576,7.404406847,9.950151684,9.293600518,9.092384841,9.907493729,9.887371605,9.851566623,9.7176498,9.671563004,9.285113641,9.32376857,9.923494679,9.814914666,9.750728016,9.66070854,9.296181537,9.390805973,9.838277744,9.651994032,9.632428265,9.211254215,9.260759363,10.12005991,10.07107057,10.0867145,10.05088506,10.07035203,10.05493097,10.04527733,10.22820378,10.17771123,10.17129931,115.4439453,46.87463994,313.2086625,2918799.66,3210823.959,8.250606353,7.79256616,8.064386276,8.03303962,8.1194545,7.744095315,8.023486139,8.163736004,7.039295624,7.114885232,7.086962849,7.344502721,7.615923048,7.403733983,7.603825526,8.447498018,8.126206863,7.926152757,7.882149848,7.569234987,7.501095717,8.283079459,7.703541379,7.854821775,7.725037238,7.958221049,7.425712235,6.866562839,6.693717636,8.445778761,8.011254265,8.252494132,7.485310741,8.007349887,8.425628885,7.613530605,7.639118187,7.703390813,7.134941495,7.124086556,6.911062164,7.111019834,8.465124733,7.803010165,8.081985209,7.733182996,7.999302457,7.398748228,7.437117132,7.727538826,7.074795536,7.541572273,7.425416687,7.674839601,8.356594923,7.514423685,8.193551689,8.05521301,7.619857711,7.636519294,7.768378903,7.290840693,7.378663722,7.17063968,7.135036071,8.275871466,7.346789203,7.707494227,7.218317661,7.165516703,7.076290906,6.686042907,7.002818681,6.439734828,6.88221438,8.304887409,7.807563183,7.807695901,7.752969859,7.868052137,7.425537076,7.579835227,7.392771406,7.272139936,8.636874963,7.940364465,8.03360757,7.963019459,7.523201816,7.325421401,7.264670516,7.490365153,8.624223612,8.546793641,8.596002065,8.312886985,8.126009331,7.56892821,7.934356192,8.795790798,8.597804765,8.391225309,8.11612856,7.983178223,7.894419945,8.769186245,8.256506351,8.193695101,7.949072007,8.18581431,8.802855029,8.227692144,8.401198387,8.297432406,8.602304999,8.250877104,8.387567187,8.664890165,8.325907418,8.602165618
3,155.3319086,170.5844017,83.32593528,125.8178541,94.03355189,138.6612274,350.5298745,1.8125,146.9248355,153.4480294,168.2513759,141.1019519,148.5519814,167.8325213,41056.36643,364.2020029,0.427371197,1.24693711,-0.621393455,0.567704568,0.728115306,3.538490826,1.635727696,-1.331174553,-0.094907407,-0.048146948,-0.155403239,-0.609562938,1.01146936,-0.644358774,-0.195919814,3139.605216,0.303314135,-0.142457066,44735.58967,49128.30769,23997.86936,36235.54199,27081.66294,39934.43349,100952.6039,521,42314.35263,44193.03247,48456.39626,40637.36214,42782.97065,48335.76614,11813978.49,104890.1768,123.0829047,-0.018237589,-0.071648394,0.015773416,7.49E-07,0,0,131.1752673,181.1712781,112.6762971,129.7284109,108.2596346,122.3375991,367.665653,1.857638889,131.428445,146.591252,167.3262556,120.1303307,146.5675569,167.5104621,50378.21911,363.5582268,0.440185263,-0.273391289,-3.416526307,19.80264893,0.455406432,-4.104418555,0.64462352,-6.338428207,0.056712963,2.119062504,-0.925373989,0.055811104,3.643906496,-0.298138685,0.107957257,734.7654819,0.232273852,-0.146728421,37778.47697,52177.32808,32450.77357,37361.78233,31178.77475,35233.22855,105887.7081,534,37851.39217,42218.28059,48189.96161,34597.53524,42211.45639,48243.01308,13487628.75,104704.7693,126.7733556,10.51244424,9.832476367,9.794126506,9.612842278,9.766606315,8.395518036,9.704718383,9.74912319,9.492924717,9.602104306,9.464644329,9.361409659,9.428321889,9.30747787,8.978459981,10.1807028,9.959249589,10.00998762,9.715189398,9.571129463,9.647581408,9.972403448,9.49133889,9.423399391,9.557170267,9.226861173,9.429788671,9.144614137,8.93774165,10.07856423,9.828884478,9.720331257,9.500620586,9.695637607,10.04151139,9.515912927,9.506907887,9.582899085,9.430084973,9.541999136,9.157326976,8.108927663,9.925987676,9.55407564,9.600484434,9.361306097,9.834007248,9.487382061,9.529473728,9.603000905,9.309417573,9.499708605,8.921620469,8.730267002,10.16678912,8.985968599,9.847539523,9.698134741,9.847036782,9.869245137,9.833466097,9.719240095,9.727591368,8.929320605,9.125984264,9.873998083,9.062250808,9.51696652,9.753051265,9.666056658,9.820548737,9.216010588,9.378654321,8.587007777,8.902971341,10.14478069,9.708400802,9.843028704,9.864897237,9.817687046,9.631313531,9.709661962,9.261769138,9.43271356,10.06399556,9.46151938,9.437881116,9.47540993,9.527947777,9.593337966,9.315147984,9.239860694,9.873497087,9.828948974,9.859716964,9.586097191,9.618263196,8.980035775,8.988867353,9.852594428,9.825453549,9.617273664,9.612266287,9.100522854,9.032305377,9.878525751,9.621825794,9.636428484,9.065437341,9.047927435,9.924161878,9.8959527,9.893268694,9.890212549,9.932592779,9.869230702,9.894545012,10.03256965,10.01442013,10.01974004,130.0234873,105.2381317,272.7305014,3317484.945,4455346.606,8.789861653,7.785151475,7.788898637,7.748648262,8.012741725,7.493517659,8.030477364,7.895760158,7.985553666,7.856241552,8.046874135,7.548830322,7.771131387,7.600144158,7.549549838,8.965504481,8.186673541,8.814434151,7.631285842,8.304754355,8.046909057,8.352559759,8.215354564,8.211158909,8.429956487,8.007129385,8.201105668,7.969438425,8.068618102,8.831059651,8.173397273,8.192342127,8.123722182,8.270547272,8.620184649,8.181010603,8.298473116,8.527242149,8.260195522,8.369223371,8.780734034,8.457386207,9.088627535,7.719811726,8.524163572,7.644701193,8.207761626,8.474965661,8.348979105,8.583923175,7.832491107,8.186165466,8.017451898,7.986206783,8.851735714,7.550184861,8.632761942,7.948036385,8.680485135,8.50610452,8.478971129,8.290580568,8.210881045,8.135843256,8.06602974,9.018675151,7.781380987,8.028282254,8.613354555,8.431279415,8.543462486,8.169474442,8.406605727,8.230182872,8.256927075,8.945636849,8.307556471,8.57056669,8.520436989,8.524235791,8.20360741,8.340481765,8.302693271,8.166977631,8.808796638,8.311451972,8.263694408,8.670707007,8.033868404,8.234320413,8.400431229,8.313024429,9.288910715,9.194802588,9.144588487,8.993893159,8.932473298,9.00668701,8.743093923,9.328624571,9.194207212,9.111179429,8.941648128,9.079785649,8.625006294,9.203395532,8.982463436,8.993137451,8.914527939,8.798623572,9.194958118,9.045939669,9.024396687,8.713222361,9.056981346,8.763327097,8.822823025,9.060402827,8.820709399,8.921899784
3,81.28869319,145.5629073,62.88790072,135.06324,91.31040717,102.858804,299.0855916,1.399317406,168.2118268,174.8257135,171.0982061,155.5686148,174.6133769,173.3495873,527.8291076,348.2871182,6.142081191,-0.003532744,-0.036983691,0.784042022,0.020969826,0.066053245,-0.194864359,-0.037732902,0.022753129,0.078033432,-0.043400654,0.362191944,-0.00977138,0.029420988,0.059621962,1.679060286,0.032749789,2.035510803,23733.64189,42502.62492,18417.75727,39431.95822,26660.35868,30019.85015,87321.84247,409,49119.35713,51047.44054,49988.54234,45418.53981,50985.11002,50620.01489,153301.0198,101702.5416,1793.487708,0.407558264,-0.051789191,-0.007404933,0.081144095,0,0,71.81400063,134.0000802,60.82526526,117.8093366,82.65959716,87.06519501,276.2514214,1.433447099,161.634733,174.3786981,172.0953064,139.0971482,174.8217207,173.3895167,4947.091214,347.6485475,0.581442905,-0.027065051,-0.020472062,0.736858847,0.019990127,0.081342735,-0.235356488,-0.018857103,0.056882821,0.087463019,-0.038224434,0.375408383,-0.010046757,0.028767831,0.064114613,47.78405816,0.030623301,0.188145024,20957.55697,39114.71657,17813.40508,34376.56451,24125.67135,25392.32271,80631.43062,419,47192.26867,50916.46502,50280.69273,40592.4001,51046.15474,50631.71423,1448144.817,101515.4404,169.7813283,8.803384659,8.616931005,8.610860232,8.142038547,8.112640085,6.986646939,6.757259126,8.626317587,6.419665146,6.474423205,6.280941355,4.45522705,5.072491296,10.67277616,7.57252218,8.497248196,8.489053117,8.096615603,8.063113802,7.232038274,7.081860448,8.505553655,6.83270156,6.884229213,6.757542011,5.08712027,5.293977451,11.81235193,8.007465897,8.51511634,8.087037554,8.113944905,7.218025655,7.220075296,8.514662644,6.875104255,6.879961129,6.852349908,5.407114541,5.338428307,10.5643148,8.008939946,7.947554547,7.88207044,7.57582988,7.477550543,8.100982995,7.439644205,7.447064962,7.400799964,6.15294079,6.146376936,4.664731583,4.170650312,7.986869071,7.49788993,7.628067201,8.097747379,7.463067319,7.423320984,7.480070057,6.125820489,6.114348286,3.59052664,3.778956541,7.682844291,7.559654972,7.221052827,7.601421359,7.611459581,7.565180571,6.697701068,6.537353372,5.864275922,5.452396067,7.812454838,7.147857646,7.575958293,7.539538627,7.597362734,6.716292349,6.717734682,5.390254161,5.432220109,8.524544532,6.846113905,6.848299909,6.811730089,5.383277782,5.379063374,10.56385499,8.008431151,7.685543629,7.666556385,7.673122891,7.023564981,6.982785456,5.627808219,5.639027384,7.663527614,7.642104978,7.002485718,6.939769021,5.592291799,5.307030767,7.682106126,7.034127458,7.019295384,5.278048321,5.583142013,7.979340486,7.988784173,8.139492297,8.146515303,8.018032337,8.161649369,8.182611454,8.609385897,8.623436511,8.665787858,154.5299997,161.0891115,189.0618422,358347.8881,364634.2263,4.286731928,3.758568049,3.629976212,3.504667135,3.436915662,2.298757345,3.137315998,3.733388091,2.111656893,2.182053509,2.081066609,2.013862085,2.35773294,2.144291811,2.18915573,4.242496735,3.780970021,3.850991107,3.261544027,2.938058751,2.996654181,4.000367628,2.790716527,2.702227258,2.55121579,1.644105171,1.373456767,1.607141947,1.683226569,4.252998317,3.503956271,3.616095996,2.799095142,3.218455446,3.959255567,2.998324818,2.99720348,3.113241461,1.687646993,2.03684675,1.913112463,1.210900558,4.265759912,3.189267047,3.916729122,3.214888178,3.671995836,3.303262249,3.448234363,3.229853827,2.09788387,1.841622589,1.817393595,1.35525731,4.21138327,3.32896956,4.021117566,3.363202566,3.069167073,3.21431891,3.392726817,2.356445571,2.812609068,2.383913711,2.109418818,4.460082559,3.721153174,2.910968418,3.699646978,3.696880791,3.307762094,2.926576465,2.726603609,2.319218679,2.246087865,4.939634031,2.883653825,3.685854994,3.272229483,3.870222028,3.406080263,3.528878577,3.532103981,3.238642985,4.129725531,2.914509266,2.731883253,2.977579484,1.392024452,1.560262736,1.353008522,1.210700959,4.19567166,4.021193394,4.043055393,3.431190776,3.458984236,2.479311811,2.661024297,4.24566625,3.920322407,3.264699554,3.290362944,2.238188995,2.088417924,4.259651623,3.486963576,3.582991773,3.01876282,3.094536737,4.041460493,3.803071753,3.760801321,3.549789215,4.186654811,3.531646666,3.730121832,4.31949807,3.763252005,4.247295999
3,102.3924323,175.0364741,92.90449932,143.4243214,112.2348918,108.9697476,355.2104615,1.467857143,128.8729318,170.1382851,168.0246282,153.3297512,171.4336314,170.2581349,51864.68968,362.4319083,0.599183416,-0.48323984,-1.142242057,-0.090066388,-3.176781837,-0.864440058,-2.155900462,-1.859767513,0.033333333,0.835222724,0.420343305,0.256474347,-0.199327049,0.300672834,0.668312168,14.74149136,-0.409079493,-0.199727805,28669.88104,49010.21274,26013.25981,40158.80998,31425.76971,30511.52933,99458.92923,410,36084.4209,47638.71982,47046.89588,42932.33034,48001.41679,47672.27777,14517659.87,101480.9343,167.7713566,-0.260457254,-0.169842704,0.064252896,-0.079964686,0,0,141.3858658,178.476157,126.4053528,148.6529461,112.5159201,127.4179898,391.3252734,1.471428571,135.5223092,160.853351,163.4534607,126.8757764,155.9636854,161.5419184,82069.22375,382.8822898,0.474653458,-2.197725034,1.752261028,0.22469284,0.943718595,0.732191699,0.838246876,2.817017236,0.060714286,-0.736721444,0.052787639,0.663833491,-0.977797534,0.272339289,-0.375014257,1343.580127,0.142762675,-0.158217819,39588.04243,49973.32396,35393.49879,41622.82492,31504.45763,35677.03714,109571.0765,410,37946.24658,45038.93828,45766.969,35525.21738,43669.83192,45231.73716,22069172.14,107207.0411,132.9029683,7.815968841,7.537952292,7.538854179,7.673331411,7.793617642,7.551981806,7.641950608,7.493637788,7.605011305,7.563858175,7.618811151,7.709032454,7.660748226,7.142102505,7.134500581,7.555422029,7.518454371,7.36288803,7.423575963,7.345623713,7.31991288,7.533299359,7.353773185,7.404748693,7.377638947,7.313793478,7.271295196,6.970467883,7.078497719,7.545587732,7.408253474,7.515751224,7.472253287,7.433677994,7.550278482,7.415073359,7.379178188,7.43154856,7.368302185,7.351008129,7.128901279,7.183371366,7.882255232,7.891413479,7.958227307,7.747722166,7.330926374,8.031107766,8.023838202,8.029298239,8.298012589,8.235634696,8.215330105,8.287396022,7.70434369,7.693256889,7.656631013,7.501813467,7.631640012,7.607697138,7.657126693,7.76180553,7.700856594,7.563026004,7.643850536,8.185978844,7.59105104,7.474096112,7.775345546,7.713811843,7.729762881,8.27886866,8.211781915,8.428485118,8.555543156,7.858564506,7.407563361,7.502586533,7.449564187,7.471652706,7.35404067,7.629896482,7.679270225,7.716701805,7.54732662,7.401107227,7.366354672,7.414793679,7.355529211,7.283958908,6.983191867,7.057016088,7.853168047,7.847643083,7.857048502,7.954954606,7.931044493,8.088674681,8.094779383,7.850131984,7.846714226,7.99908133,7.963113772,8.032266681,8.112498475,7.865512669,7.943615276,7.889937346,8.088317107,8.099065807,8.408191186,8.359992385,8.536609097,8.483155443,8.321698632,8.486227501,8.450311743,8.715185698,8.702788116,8.711701744,479.0651829,414.5916794,574.3562809,5136629.8,5706736.875,6.038066019,6.502748017,6.157268492,6.019088157,6.188701762,5.897021577,6.103641563,6.388308601,5.867854716,5.783893704,5.920606715,5.266818481,5.593726534,5.242716907,5.460801439,6.418179773,6.237349497,6.776830749,6.184730688,6.654388731,6.038710126,6.327731971,6.020688622,6.153634112,5.945926242,5.9132352,5.854513024,5.639565883,5.615755388,6.203929382,6.667315083,6.110415593,6.523269764,6.040748637,6.25666203,5.96651029,6.104893688,5.901172205,5.806917697,5.773776786,5.722900464,5.782932694,6.647307121,6.394985414,6.530436612,6.415606538,6.682202343,6.453493156,6.495304789,6.370329098,6.288936581,6.169490047,6.221346838,6.204314418,6.287445651,6.455988895,6.176522507,6.106062965,5.965716848,5.914315284,5.929212695,5.806000254,5.868649382,5.784215377,5.744862759,6.648132662,6.302831999,6.567731485,6.548902924,6.620601657,6.489060861,6.357067871,6.180372526,6.2642819,6.186344348,6.320963238,6.016496086,6.02200928,5.934798762,6.004692096,5.707282457,5.695662556,5.730124244,5.734610866,6.29970949,6.018180271,6.118302304,5.932945377,5.765589675,5.729262036,5.590991826,5.693869166,6.088933092,6.094244393,6.06044465,5.929072914,5.89258806,5.663309336,5.653637376,6.116722158,6.057519576,5.970285848,5.897144324,5.692182678,5.68408476,6.053562417,5.939612005,5.851385368,5.580673349,5.631272727,6.057101802,5.948712459,5.951368342,5.940276465,6.017895994,5.850926323,5.822483475,5.983425819,5.833660693,6.065847967
3,58.93983369,94.0929605,66.41770975,86.09014042,58.95260808,67.44386561,187.0200942,1.466666667,152.6795981,167.1110493,167.6782412,145.4968882,159.0816418,164.8768344,7952.981797,364.9411603,1.012233633,-0.126605854,0.246037059,-1.482516721,-0.470330367,-0.101288665,-0.283791756,2.200498053,0.021111111,-0.276795997,-0.175437552,0.088989684,-0.492603864,-0.021546438,-0.171628856,237.5642168,0.12128471,0.329628913,17614.49861,28127.91752,19778.09804,25718.67371,17619.03408,20147.38842,55907.50669,439,45628.95891,49957.53119,50136.27754,43472.41478,47558.03084,49288.19623,2384793.452,109116.2902,302.6578562,0.047819175,-0.072417711,-0.009910812,0,0,0,64.12437985,96.264511,66.84728221,86.42648974,60.69861816,63.59813718,187.8756111,1.53,146.9702874,163.572183,168.8611817,145.892222,157.6410097,165.3291815,11204.17065,367.8487296,1.388755448,-0.216034566,-0.149385228,-1.393223868,-0.161993637,-0.686883819,-0.510858084,-0.278233719,0.007777778,-0.411115138,-0.183411059,0.038888843,-0.56599998,-0.052532993,-0.092724098,240.568095,0.044412949,0.456101494,19169.86246,28761.79585,19906.96978,25800.7837,18129.564,18993.66989,56139.2444,458,43916.1657,48895.87131,50491.15967,43591.01493,47125.84122,49423.90037,3360150.108,109986.2527,415.2378789,7.746629581,7.584988681,7.635195868,7.154128418,7.242837334,6.252215416,5.82806039,7.59453881,5.724031648,5.769886751,5.831649803,6.388517717,6.350992468,6.836223811,6.756344847,7.614997353,7.576200124,7.27254828,7.182735286,6.806637968,6.385023732,7.598824077,6.538814593,6.595444603,6.37971756,6.308615047,6.448901229,6.676990849,6.719222785,7.656683214,7.186588285,7.325420259,6.327195174,6.765189337,7.619177829,6.296178083,6.166168184,6.315874488,6.416290679,6.276251469,6.80469534,6.811580825,7.249727952,6.816217359,6.990358803,6.151597188,7.182183255,6.669072205,6.785771242,6.560159235,5.664896445,6.550002733,6.020015031,6.438814952,7.2969626,6.15036181,7.039253156,7.254410482,6.296878281,6.103670154,6.48398768,5.759705329,5.142708272,4.378289085,5.089107891,7.079037048,5.640212785,6.636695274,6.661126069,6.766964272,6.564811945,6.213463839,5.415531115,4.936588814,5.616067781,7.118952814,6.575291448,6.226644645,5.788367197,6.469318094,4.718189422,5.559881756,5.547054941,5.650417518,7.629958017,6.452904017,6.456587504,6.381446995,6.368279609,6.47668285,6.7640119,6.789348923,6.84340995,6.829301736,6.788581377,6.297855101,6.146235118,4.534205714,5.588578326,6.870026496,6.759753635,6.349294846,6.041315801,5.435749555,5.643806888,6.799176344,6.195756533,6.159722008,5.140913311,5.201101359,7.165199362,7.089996784,7.309304418,7.254571154,7.142460287,7.257461405,7.297450318,7.703904131,7.667747737,7.729984101,94.13128947,66.66524043,144.5593014,418759.4116,568673.0947,5.630297763,5.088343279,4.642974495,4.631196506,4.67973951,4.838072604,5.089238009,4.941159419,4.935154311,4.628533915,4.752516618,4.532314639,4.860364857,4.598529167,4.968671801,5.746104784,5.423018685,5.474085388,5.003685856,5.209084123,4.988581452,5.589462145,5.250716873,5.256071166,5.070705997,4.95137282,4.639046866,4.605932472,4.402327747,5.57935231,5.257604172,5.230518698,4.812585149,4.883028193,5.503372793,5.192221738,5.039460069,5.102232674,4.719194223,4.620781418,4.135868614,4.434831561,5.774556881,5.021825205,5.418175997,4.863514941,5.32515167,5.298331643,5.336371134,5.11393589,5.04423906,4.757658439,4.718319556,4.442172228,5.66936642,5.001441378,5.44390979,5.043956901,5.035394033,4.953575728,5.175811876,4.686050532,4.909459836,4.477590242,4.530980195,5.836312886,4.937232376,5.154575622,5.35089046,5.347782673,5.152504374,5.249395011,4.895632319,4.900045976,4.827574285,5.938150254,4.890772006,4.807870804,4.822618876,4.967571961,4.708093826,5.095383726,4.746121313,4.634980733,5.644035387,5.3029649,5.235336475,5.125959467,4.862904859,4.763064126,4.511159529,4.559507553,5.677381959,5.543234343,5.504949804,5.294591866,5.198806374,4.9848871,4.830810763,5.602724304,5.39108476,5.309700969,5.12387769,5.015426727,4.799806842,5.632981619,5.260442596,5.312112118,4.853937938,4.849057163,5.537130552,5.155024429,5.32410829,4.86860534,5.530381377,5.023897386,5.289162966,5.491597905,4.984953529,5.487611482
